; generated by PrusaSlicer 2.2.0+win64 on 2020-06-04 at 08:53:33 UTC

; 

; external perimeters extrusion width = 0.45mm
; perimeters extrusion width = 0.45mm
; infill extrusion width = 0.45mm
; solid infill extrusion width = 0.45mm
; top infill extrusion width = 0.40mm
; first layer extrusion width = 0.42mm

M73 P0 R23
M73 Q0 S23
M201 X1000 Y1000 Z200 E5000 ; sets maximum accelerations, mm/sec^2
M203 X200 Y200 Z12 E120 ; sets maximum feedrates, mm/sec
M204 P1250 R1250 T1250 ; sets acceleration (P, T) and retract acceleration (R), mm/sec^2
M205 X8.00 Y8.00 Z0.40 E4.50 ; sets the jerk limits, mm/sec
M205 S0 T0 ; sets the minimum extruding and travel feed rate, mm/sec
M107
; M862.3 P "MK3S" ; printer model check
M862.1 P0.4 ; nozzle diameter check
M115 U3.8.1 ; tell printer latest fw version
G90 ; use absolute coordinates
M83 ; extruder relative mode
M104 S215 ; set extruder temp
M140 S60 ; set bed temp
M190 S60 ; wait for bed temp
M109 S215 ; wait for extruder temp
G28 W ; home all without mesh bed level
G80 ; mesh bed leveling
G1 Y-3.0 F1000.0 ; go outside print area
G92 E0.0
G1 X60.0 E9.0 F1000.0 ; intro line
M73 Q0 S23
M73 P0 R23
G1 X100.0 E12.5 F1000.0 ; intro line
G92 E0.0
M221 S95
G21 ; set units to millimeters
G90 ; use absolute coordinates
M83 ; use relative distances for extrusion
M900 K0.06 ; Filament gcode LA 1.5
M900 K30 ; Filament gcode LA 1.0
;BEFORE_LAYER_CHANGE
G92 E0.0
;0.2


G1 E-0.80000 F2100.00000
G1 Z0.600 F10800.000
;AFTER_LAYER_CHANGE
;0.2
G1 X80.915 Y99.515
G1 Z0.200
G1 E0.80000 F2100.00000
M204 S1000
G1 F1200.000
G1 X81.421 Y99.236 E0.01811
G1 X124.123 Y82.210 E1.44140
G1 X125.005 Y82.042 E0.02813
G1 X125.875 Y82.209 E0.02778
G1 X168.578 Y99.236 E1.44142
G1 X169.087 Y99.516 E0.01823
G1 X169.611 Y100.038 E0.02319
G1 X187.153 Y124.184 E0.93580
G1 X187.451 Y124.833 E0.02237
G1 X187.544 Y125.544 E0.02249
G1 X187.421 Y126.246 E0.02237
G1 X187.096 Y126.881 E0.02237
G1 X186.726 Y127.285 E0.01716
G1 X186.278 Y127.593 E0.01704
G1 X185.768 Y127.791 E0.01716
G1 X185.226 Y127.867 E0.01716
G1 X144.996 Y127.958 E1.26140
G1 X64.801 Y127.868 E2.51446
G1 X64.254 Y127.797 E0.01728
G1 X63.735 Y127.600 E0.01740
G1 X63.276 Y127.288 E0.01740
G1 X62.905 Y126.881 E0.01728
G1 X62.578 Y126.243 E0.02249
G1 X62.456 Y125.540 E0.02237
G1 X62.548 Y124.833 E0.02237
G1 X62.847 Y124.185 E0.02237
G1 X80.388 Y100.039 E0.93576
G1 X80.873 Y99.557 E0.02143
G1 E-0.80000 F2100.00000
G1 Z0.800 F10800.000
G1 X83.399 Y102.363
G1 Z0.200
G1 E0.80000 F2100.00000
G1 F1200.000
G1 X86.970 Y102.785 E0.11275
G1 X90.379 Y102.891 E0.10695
G1 X93.357 Y102.944 E0.09338
G1 X96.328 Y102.719 E0.09343
G1 X99.727 Y102.404 E0.10702
G1 X102.073 Y101.975 E0.07476
G1 X104.317 Y101.591 E0.07140
G1 X106.677 Y101.252 E0.07474
G1 X108.090 Y100.942 E0.04537
G1 X109.708 Y100.479 E0.05275
G1 X111.065 Y100.001 E0.04513
G1 X112.455 Y99.416 E0.04727
G1 X113.741 Y98.775 E0.04505
G1 X115.055 Y98.038 E0.04727
G1 X116.253 Y97.244 E0.04505
G1 X117.476 Y96.363 E0.04727
G1 X118.567 Y95.428 E0.04505
G1 X119.683 Y94.414 E0.04727
G1 X120.651 Y93.353 E0.04505
G1 X121.647 Y92.219 E0.04731
G1 X123.336 Y89.811 E0.09223
G1 X124.736 Y87.209 E0.09263
G1 X125.007 Y86.440 E0.02556
G1 X125.165 Y86.909 E0.01551
G1 X125.777 Y88.247 E0.04613
G1 X127.526 Y91.115 E0.10534
G1 X129.645 Y93.722 E0.10533
G1 X130.687 Y94.731 E0.04547
G1 X132.102 Y96.022 E0.06006
G1 X133.258 Y96.896 E0.04544
G1 X134.844 Y97.969 E0.06006
G1 X136.099 Y98.694 E0.04544
G1 X137.824 Y99.528 E0.06006
G1 X139.158 Y100.093 E0.04544
G1 X140.985 Y100.670 E0.06006
G1 X142.381 Y101.067 E0.04550
G1 X145.686 Y101.591 E0.10492
G1 X147.937 Y101.976 E0.07161
G1 X151.963 Y102.613 E0.12780
G1 X154.940 Y102.839 E0.09362
G1 X158.347 Y102.944 E0.10688
G1 X161.331 Y102.890 E0.09358
G1 X164.727 Y102.575 E0.10691
G1 X166.603 Y102.360 E0.05923
G1 X166.496 Y102.724 E0.01191
G1 X166.185 Y104.517 E0.05705
G1 X166.092 Y106.336 E0.05710
G1 X166.220 Y108.152 E0.05710
G1 X166.567 Y109.940 E0.05710
G1 X167.127 Y111.673 E0.05710
G1 X167.893 Y113.325 E0.05710
G1 X168.855 Y114.876 E0.05723
G1 X169.698 Y115.881 E0.04112
G1 X171.460 Y117.841 E0.08264
G1 X172.852 Y119.190 E0.06079
G1 X174.891 Y120.873 E0.08289
G1 X176.439 Y122.041 E0.06079
G1 X178.705 Y123.402 E0.08290
G1 X180.384 Y124.372 E0.06081
G1 X181.238 Y124.720 E0.02889
G1 X145.659 Y124.791 E1.11555
G1 X145.602 Y124.477 E0.01001
G1 X145.434 Y123.808 E0.02161
G1 X145.231 Y123.131 E0.02216
G1 X144.712 Y121.851 E0.04330
G1 X144.041 Y120.628 E0.04375
G1 X143.238 Y119.498 E0.04348
G1 X142.309 Y118.468 E0.04347
G1 X141.264 Y117.549 E0.04364
G1 X140.694 Y117.139 E0.02202
G1 X140.120 Y116.759 E0.02157
G1 X139.509 Y116.414 E0.02202
G1 X138.893 Y116.107 E0.02157
G1 X138.248 Y115.830 E0.02202
G1 X137.599 Y115.601 E0.02157
G1 X136.927 Y115.397 E0.02202
G1 X136.255 Y115.249 E0.02157
G1 X135.563 Y115.118 E0.02209
G1 X134.182 Y115.001 E0.04346
G1 X132.795 Y115.044 E0.04349
G1 X132.100 Y115.143 E0.02201
G1 X131.418 Y115.249 E0.02164
G1 X129.850 Y115.656 E0.05080
G1 X128.445 Y121.006 E0.17343
G1 X127.960 Y119.028 E0.06386
G1 X122.040 Y119.028 E0.18559
G1 X121.555 Y121.006 E0.06386
G1 X120.153 Y115.665 E0.17315
G1 X118.920 Y115.334 E0.04002
G1 X118.244 Y115.186 E0.02168
G1 X117.549 Y115.087 E0.02202
G1 X116.864 Y115.024 E0.02157
G1 X116.162 Y115.002 E0.02202
G1 X115.474 Y115.023 E0.02157
G1 X114.774 Y115.077 E0.02202
G1 X114.094 Y115.183 E0.02157
G1 X113.401 Y115.314 E0.02211
G1 X112.073 Y115.705 E0.04344
G1 X110.796 Y116.250 E0.04352
G1 X109.586 Y116.940 E0.04366
G1 X108.469 Y117.764 E0.04355
G1 X107.458 Y118.708 E0.04335
G1 X106.987 Y119.236 E0.02219
G1 X106.556 Y119.772 E0.02157
G1 X106.148 Y120.344 E0.02202
G1 X105.786 Y120.929 E0.02157
G1 X105.441 Y121.546 E0.02216
G1 X104.882 Y122.812 E0.04338
G1 X104.471 Y124.139 E0.04357
G1 X104.349 Y124.791 E0.02079
G1 X68.842 Y124.721 E1.11330
G1 X70.475 Y123.910 E0.05715
G1 X72.741 Y122.549 E0.08290
G1 X74.357 Y121.478 E0.06079
G1 X76.397 Y119.795 E0.08290
G1 X77.868 Y118.535 E0.06074
G1 X80.922 Y115.158 E0.14277
G1 X81.150 Y114.868 E0.01158
G1 X81.888 Y113.704 E0.04321
G1 X82.300 Y112.937 E0.02730
G1 X82.703 Y112.071 E0.02995
G1 X83.016 Y111.264 E0.02715
G1 X83.314 Y110.356 E0.02995
G1 X83.525 Y109.516 E0.02715
G1 X83.713 Y108.580 E0.02995
G1 X83.819 Y107.720 E0.02715
G1 X83.894 Y106.768 E0.02995
G1 X83.894 Y105.902 E0.02715
G1 X83.855 Y104.948 E0.02995
G1 X83.748 Y104.089 E0.02715
G1 X83.596 Y103.146 E0.02995
G1 X83.414 Y102.421 E0.02341
G1 E-0.80000 F2100.00000
G1 Z0.800 F10800.000
G1 X130.158 Y115.966
G1 Z0.200
G1 E0.80000 F2100.00000
G1 F1200.000
G1 X128.767 Y121.282 E0.17229
G1 X128.684 Y121.766 E0.01542
G1 X128.581 Y122.716 E0.02994
G1 X128.428 Y123.293 E0.01872
G1 X128.271 Y122.661 E0.02041
G1 X128.186 Y121.670 E0.03121
G1 X128.096 Y121.165 E0.01607
G1 X127.664 Y119.405 E0.05683
G1 X122.336 Y119.405 E0.16705
G1 X121.904 Y121.165 E0.05683
G1 X121.814 Y121.670 E0.01607
G1 X121.729 Y122.661 E0.03121
G1 X121.572 Y123.293 E0.02041
G1 X121.419 Y122.716 E0.01872
G1 X121.316 Y121.766 E0.02994
G1 X121.233 Y121.282 E0.01542
G1 X119.844 Y115.972 E0.17208
G1 X118.831 Y115.700 E0.03289
G1 X118.177 Y115.557 E0.02097
G1 X117.505 Y115.462 E0.02129
G1 X116.840 Y115.400 E0.02093
G1 X116.162 Y115.379 E0.02129
G1 X115.495 Y115.399 E0.02093
G1 X114.818 Y115.452 E0.02129
G1 X113.490 Y115.681 E0.04224
G1 X112.200 Y116.061 E0.04216
G1 X110.963 Y116.588 E0.04217
G1 X110.372 Y116.922 E0.02127
G1 X109.793 Y117.256 E0.02096
G1 X108.710 Y118.055 E0.04220
G1 X107.728 Y118.972 E0.04213
G1 X107.275 Y119.480 E0.02135
G1 X106.856 Y120.000 E0.02093
G1 X106.462 Y120.553 E0.02129
G1 X106.111 Y121.120 E0.02093
G1 X105.778 Y121.714 E0.02134
G1 X105.235 Y122.944 E0.04214
G1 X104.838 Y124.230 E0.04221
G1 X104.662 Y125.169 E0.02994
G1 X69.300 Y125.090 E1.10877
G1 X68.298 Y125.107 E0.03142
G1 X67.790 Y125.154 E0.01600
G1 X66.808 Y125.284 E0.03106
G1 X65.990 Y125.283 E0.02564
G1 X66.879 Y124.919 E0.03011
G1 X67.722 Y124.721 E0.02715
G1 X68.151 Y124.591 E0.01405
G1 X68.578 Y124.430 E0.01432
G1 X70.293 Y123.579 E0.06003
G1 X72.540 Y122.230 E0.08217
G1 X74.132 Y121.174 E0.05991
G1 X76.154 Y119.507 E0.08217
G1 X77.604 Y118.264 E0.05988
G1 X80.633 Y114.914 E0.14161
G1 X80.842 Y114.650 E0.01057
G1 X81.562 Y113.513 E0.04218
G1 X81.962 Y112.768 E0.02654
G1 X82.356 Y111.923 E0.02922
G1 X82.661 Y111.137 E0.02644
G1 X82.951 Y110.251 E0.02922
G1 X83.157 Y109.433 E0.02644
G1 X83.340 Y108.519 E0.02922
G1 X83.444 Y107.682 E0.02644
G1 X83.517 Y106.753 E0.02922
G1 X83.517 Y105.910 E0.02644
G1 X83.479 Y104.979 E0.02922
G1 X83.375 Y104.142 E0.02644
G1 X83.226 Y103.222 E0.02922
G1 X83.020 Y102.402 E0.02651
G1 X82.876 Y101.922 E0.01571
G1 X86.998 Y102.409 E0.13013
G1 X90.389 Y102.514 E0.10636
G1 X93.346 Y102.567 E0.09275
G1 X96.297 Y102.343 E0.09277
G1 X99.676 Y102.030 E0.10640
G1 X102.007 Y101.603 E0.07431
G1 X104.259 Y101.218 E0.07163
G1 X106.609 Y100.881 E0.07447
G1 X107.998 Y100.576 E0.04456
G1 X109.593 Y100.120 E0.05202
G1 X110.929 Y99.649 E0.04442
G1 X112.297 Y99.073 E0.04654
G1 X113.564 Y98.442 E0.04438
G1 X114.859 Y97.716 E0.04654
G1 X116.039 Y96.934 E0.04438
G1 X117.243 Y96.066 E0.04654
G1 X118.318 Y95.145 E0.04438
G1 X119.417 Y94.147 E0.04654
G1 X120.370 Y93.101 E0.04438
G1 X121.350 Y91.985 E0.04656
G1 X123.014 Y89.612 E0.09089
G1 X124.390 Y87.056 E0.09101
G1 X124.679 Y86.236 E0.02725
G1 X124.829 Y85.414 E0.02622
G1 X125.003 Y84.978 E0.01471
G1 X125.232 Y85.550 E0.01929
G1 X125.280 Y85.946 E0.01252
G1 X125.376 Y86.364 E0.01344
G1 X125.516 Y86.768 E0.01342
G1 X126.111 Y88.069 E0.04486
G1 X127.834 Y90.897 E0.10384
G1 X129.924 Y93.466 E0.10383
G1 X130.945 Y94.457 E0.04459
G1 X132.343 Y95.732 E0.05933
G1 X133.477 Y96.589 E0.04458
G1 X135.045 Y97.649 E0.05933
G1 X136.276 Y98.360 E0.04458
G1 X137.979 Y99.184 E0.05933
G1 X139.289 Y99.738 E0.04458
G1 X141.093 Y100.308 E0.05933
G1 X142.462 Y100.698 E0.04462
G1 X145.747 Y101.219 E0.10429
G1 X147.998 Y101.604 E0.07161
G1 X152.007 Y102.238 E0.12725
G1 X154.960 Y102.462 E0.09287
G1 X158.350 Y102.567 E0.10632
G1 X161.311 Y102.513 E0.09286
G1 X164.688 Y102.200 E0.10634
G1 X167.126 Y101.920 E0.07695
G1 X166.864 Y102.810 E0.02908
G1 X166.560 Y104.559 E0.05566
G1 X166.470 Y106.332 E0.05566
G1 X166.595 Y108.103 E0.05566
G1 X166.933 Y109.846 E0.05566
G1 X167.479 Y111.535 E0.05566
G1 X168.225 Y113.146 E0.05567
G1 X169.161 Y114.654 E0.05566
G1 X169.983 Y115.633 E0.04007
G1 X171.732 Y117.579 E0.08203
G1 X173.104 Y118.909 E0.05991
G1 X175.125 Y120.577 E0.08217
G1 X176.650 Y121.728 E0.05991
G1 X178.896 Y123.077 E0.08217
G1 X180.551 Y124.033 E0.05990
G1 X181.889 Y124.579 E0.04532
G1 X182.355 Y124.726 E0.01532
G1 X183.199 Y124.928 E0.02720
G1 X184.056 Y125.283 E0.02911
G1 X183.193 Y125.284 E0.02707
G1 X182.210 Y125.147 E0.03112
G1 X181.701 Y125.104 E0.01602
G1 X180.700 Y125.090 E0.03138
G1 X145.344 Y125.169 E1.10858
G1 X145.233 Y124.556 E0.01951
G1 X145.070 Y123.908 E0.02094
G1 X144.875 Y123.257 E0.02134
G1 X144.370 Y122.012 E0.04211
G1 X143.722 Y120.830 E0.04227
G1 X142.943 Y119.734 E0.04216
G1 X142.042 Y118.735 E0.04217
G1 X141.030 Y117.846 E0.04223
G1 X140.479 Y117.450 E0.02129
G1 X139.923 Y117.081 E0.02093
G1 X139.332 Y116.747 E0.02129
G1 X138.734 Y116.449 E0.02093
G1 X138.110 Y116.182 E0.02129
G1 X137.481 Y115.960 E0.02093
G1 X136.831 Y115.762 E0.02129
G1 X135.511 Y115.493 E0.04224
G1 X134.171 Y115.378 E0.04217
G1 X132.828 Y115.420 E0.04215
G1 X131.495 Y115.618 E0.04225
G1 X130.216 Y115.950 E0.04141
G1 X129.760 Y115.924 F10800.000
G1 E-0.80000 F2100.00000
G1 Z0.800 F10800.000
G1 X128.165 Y119.393
G1 Z0.200
G1 E0.80000 F2100.00000
G1 F1200.000
G1 X128.630 Y119.857 E0.02060
G1 E-0.80000 F2100.00000
G1 Z0.800 F10800.000
G1 X128.441 Y121.195
G1 Z0.200
G1 E0.80000 F2100.00000
G1 F1200.000
G1 X128.442 Y121.341 E0.00304
G1 X128.442 Y121.487 E0.00260
G1 X128.443 Y121.633 E0.00217
G1 X128.439 Y121.730 E0.00116
G1 X128.437 Y121.918 E0.00184
G1 X128.435 Y122.103 E0.00128
G1 E-0.80000 F2100.00000
G1 Z0.800 F10800.000
G1 X123.419 Y118.915
G1 Z0.200
G1 E0.80000 F2100.00000
G1 F1200.000
G1 X120.543 Y116.039 E0.12759
G1 X120.733 Y116.763 E0.02347
G1 X122.716 Y118.745 E0.08795
G1 X122.182 Y118.745 E0.01674
G1 X120.923 Y117.487 E0.05585
G1 X121.113 Y118.210 E0.02347
G1 X121.785 Y118.882 E0.02981
G1 X121.680 Y119.310 E0.01384
G1 X121.303 Y118.934 E0.01671
G1 X121.493 Y119.658 E0.02347
G1 X121.715 Y119.879 E0.00984
G1 E-0.80000 F2100.00000
G1 Z0.800 F10800.000
G1 X121.559 Y121.195
G1 Z0.200
G1 E0.80000 F2100.00000
G1 F1200.000
G1 X121.558 Y121.341 E0.00304
G1 X121.558 Y121.487 E0.00260
G1 X121.557 Y121.633 E0.00217
G1 X121.561 Y121.730 E0.00116
G1 X121.563 Y121.918 E0.00184
G1 X121.565 Y122.103 E0.00128
G1 E-0.80000 F2100.00000
G1 Z0.800 F10800.000
G1 X145.605 Y124.026
G1 Z0.200
G1 E0.80000 F2100.00000
G1 F1200.000
G1 X146.087 Y124.507 E0.02137
G1 X146.620 Y124.506 E0.01671
G1 X145.647 Y123.533 E0.04316
G1 X145.498 Y123.037 E0.01625
G1 X145.371 Y122.724 E0.01062
G1 X147.152 Y124.505 E0.07905
G1 X147.685 Y124.504 E0.01671
G1 X145.006 Y121.826 E0.11884
G1 X144.389 Y120.675 E0.04098
G1 X148.387 Y124.672 E0.17738
G1 E-0.80000 F2100.00000
G1 Z0.800 F10800.000
G1 X159.570 Y124.650
G1 Z0.200
G1 E0.80000 F2100.00000
G1 F1200.000
G1 X124.033 Y89.112 E1.57684
G1 X123.846 Y89.459 E0.01236
G1 X158.869 Y124.482 E1.55397
G1 X158.336 Y124.483 E0.01671
G1 X123.659 Y89.806 E1.53863
M73 Q4 S22
M73 P4 R22
G1 X123.454 Y90.135 E0.01215
G1 X157.803 Y124.484 E1.52411
G1 X157.271 Y124.485 E0.01671
G1 X123.234 Y90.448 E1.51024
G1 X123.014 Y90.762 E0.01202
G1 X156.738 Y124.486 E1.49637
G1 X156.206 Y124.487 E0.01671
G1 X122.794 Y91.075 E1.48250
G1 X122.574 Y91.389 E0.01202
G1 X155.673 Y124.488 E1.46863
G1 X155.141 Y124.489 E0.01671
G1 X122.354 Y91.703 E1.45476
G1 X122.134 Y92.016 E0.01202
G1 X154.608 Y124.490 E1.44089
G1 X154.075 Y124.491 E0.01671
G1 X121.914 Y92.330 E1.42702
G1 X121.671 Y92.620 E0.01188
G1 X153.543 Y124.492 E1.41420
G1 X153.010 Y124.493 E0.01671
G1 X121.421 Y92.904 E1.40164
G1 X121.172 Y93.188 E0.01186
G1 X152.478 Y124.495 E1.38908
G1 X151.945 Y124.496 E0.01671
G1 X120.922 Y93.473 E1.37651
G1 X120.669 Y93.753 E0.01185
G1 X151.413 Y124.497 E1.36412
G1 X150.880 Y124.498 E0.01671
G1 X120.414 Y94.032 E1.35178
G1 X120.160 Y94.311 E0.01185
G1 X150.348 Y124.499 E1.33944
G1 X149.815 Y124.500 E0.01671
G1 X119.906 Y94.590 E1.32711
G1 X119.628 Y94.847 E0.01185
G1 X149.282 Y124.501 E1.31579
G1 X148.750 Y124.502 E0.01671
G1 X119.348 Y95.100 E1.30456
G1 X119.069 Y95.354 E0.01185
G1 X140.186 Y116.472 E0.93698
G1 X139.641 Y116.164 E0.01962
G1 X139.050 Y115.869 E0.02073
G1 X118.789 Y95.608 E0.89899
G1 X118.503 Y95.856 E0.01187
G1 X138.139 Y115.492 E0.87128
G1 X137.340 Y115.227 E0.02640
G1 X118.215 Y96.102 E0.84860
G1 X117.928 Y96.348 E0.01187
G1 X136.620 Y115.040 E0.82936
G1 X135.950 Y114.904 E0.02143
G1 X117.640 Y96.593 E0.81245
G1 X117.330 Y96.817 E0.01199
G1 X135.327 Y114.815 E0.79857
G1 X134.744 Y114.765 E0.01837
G1 X117.019 Y97.040 E0.78645
G1 X116.709 Y97.264 E0.01199
G1 X134.164 Y114.719 E0.77448
G1 X133.646 Y114.735 E0.01624
G1 X116.399 Y97.487 E0.76530
G1 X116.078 Y97.699 E0.01208
G1 X133.129 Y114.751 E0.75658
G1 X132.627 Y114.782 E0.01578
G1 X115.757 Y97.912 E0.74855
G1 X115.436 Y98.125 E0.01208
G1 X132.160 Y114.849 E0.74205
G1 X131.696 Y114.919 E0.01470
G1 X115.109 Y98.332 E0.73600
G1 X114.767 Y98.524 E0.01230
G1 X131.245 Y115.001 E0.73113
M73 Q9 S21
M73 P9 R21
G1 X130.821 Y115.111 E0.01373
G1 X114.425 Y98.715 E0.72750
G1 X114.084 Y98.907 E0.01230
G1 X130.398 Y115.221 E0.72387
G1 X129.974 Y115.332 E0.01373
G1 X113.736 Y99.094 E0.72049
G1 X113.380 Y99.271 E0.01249
G1 X129.601 Y115.491 E0.71972
G1 X129.490 Y115.914 E0.01371
G1 X113.024 Y99.448 E0.73060
G1 X112.668 Y99.626 E0.01249
G1 X129.379 Y116.337 E0.74148
G1 X129.268 Y116.759 E0.01371
G1 X112.297 Y99.789 E0.75299
G1 X111.922 Y99.947 E0.01278
G1 X129.157 Y117.182 E0.76473
G1 X129.046 Y117.605 E0.01371
G1 X111.546 Y100.105 E0.77646
G1 X111.171 Y100.263 E0.01278
G1 X128.935 Y118.027 E0.78820
G1 X128.824 Y118.450 E0.01371
G1 X110.776 Y100.403 E0.80078
G1 X110.382 Y100.542 E0.01313
G1 X128.713 Y118.873 E0.81336
G1 X128.602 Y119.295 E0.01371
