; generated by PrusaSlicer 2.2.0+win64 on 2020-06-04 at 09:00:52 UTC

; 

; external perimeters extrusion width = 0.45mm
; perimeters extrusion width = 0.45mm
; infill extrusion width = 0.45mm
; solid infill extrusion width = 0.45mm
; top infill extrusion width = 0.40mm
; first layer extrusion width = 0.42mm

M73 P0 R54
M73 Q0 S54
M201 X1000 Y1000 Z200 E5000 ; sets maximum accelerations, mm/sec^2
M203 X200 Y200 Z12 E120 ; sets maximum feedrates, mm/sec
M204 P1250 R1250 T1250 ; sets acceleration (P, T) and retract acceleration (R), mm/sec^2
M205 X8.00 Y8.00 Z0.40 E4.50 ; sets the jerk limits, mm/sec
M205 S0 T0 ; sets the minimum extruding and travel feed rate, mm/sec
M107
; M862.3 P "MK3S" ; printer model check
M862.1 P0.4 ; nozzle diameter check
M115 U3.8.1 ; tell printer latest fw version
G90 ; use absolute coordinates
M83 ; extruder relative mode
M104 S215 ; set extruder temp
M140 S60 ; set bed temp
M190 S60 ; wait for bed temp
M109 S215 ; wait for extruder temp
G28 W ; home all without mesh bed level
G80 ; mesh bed leveling
G1 Y-3.0 F1000.0 ; go outside print area
G92 E0.0
G1 X60.0 E9.0 F1000.0 ; intro line
M73 Q0 S54
M73 P0 R54
G1 X100.0 E12.5 F1000.0 ; intro line
G92 E0.0
M221 S95
G21 ; set units to millimeters
G90 ; use absolute coordinates
M83 ; use relative distances for extrusion
M900 K0.06 ; Filament gcode LA 1.5
M900 K30 ; Filament gcode LA 1.0
;BEFORE_LAYER_CHANGE
G92 E0.0
;0.2


G1 E-0.80000 F2100.00000
G1 Z0.600 F10800.000
;AFTER_LAYER_CHANGE
;0.2
G1 X99.608 Y58.909
G1 Z0.200
G1 E0.80000 F2100.00000
M204 S1000
G1 F1200.000
G1 X99.688 Y58.773 E0.00495
G1 X100.570 Y57.783 E0.04154
G1 X101.291 Y57.208 E0.02894
G1 X102.086 Y56.744 E0.02885
G1 X103.515 Y56.194 E0.04801
G1 X105.537 Y55.848 E0.06433
G1 X108.355 Y55.712 E0.08844
G1 X125.350 Y55.643 E0.53288
G1 X140.535 Y55.690 E0.47611
G1 X143.779 Y55.797 E0.10176
G1 X145.644 Y56.003 E0.05884
G1 X146.570 Y56.220 E0.02981
G1 X147.925 Y56.748 E0.04560
G1 X148.708 Y57.207 E0.02845
G1 X149.356 Y57.714 E0.02579
G1 X149.955 Y58.325 E0.02685
G1 X150.690 Y59.352 E0.03958
G1 X151.063 Y60.066 E0.02526
G1 X151.517 Y61.263 E0.04017
G1 X151.825 Y62.751 E0.04762
G1 X151.895 Y65.066 E0.07263
G1 X148.846 Y136.874 E2.25353
G1 X148.586 Y138.550 E0.05318
G1 X148.028 Y140.085 E0.05121
G1 X146.725 Y142.491 E0.08580
G1 X145.986 Y143.629 E0.04254
G1 X145.070 Y144.832 E0.04739
G1 X143.960 Y146.006 E0.05067
G1 X142.352 Y147.327 E0.06524
G1 X136.723 Y150.955 E0.20996
G1 X134.988 Y151.898 E0.06192
G1 X133.304 Y152.645 E0.05775
G1 X131.764 Y153.166 E0.05099
G1 X130.520 Y153.465 E0.04011
G1 X128.537 Y153.737 E0.06275
G1 X123.145 Y154.231 E0.16979
G1 X120.948 Y154.347 E0.06897
G1 X119.084 Y154.330 E0.05845
G1 X116.543 Y154.021 E0.08026
G1 X115.234 Y153.713 E0.04216
G1 X113.721 Y153.241 E0.04967
G1 X110.137 Y151.824 E0.12086
G1 X105.410 Y149.667 E0.16291
G1 X104.796 Y149.258 E0.02314
G1 X104.261 Y148.784 E0.02240
G1 X103.418 Y147.666 E0.04391
G1 X102.788 Y146.223 E0.04934
G1 X102.200 Y144.069 E0.07002
G1 X102.004 Y142.843 E0.03892
G1 X100.988 Y131.128 E0.36870
G1 X98.105 Y65.083 E2.07277
G1 X98.109 Y63.439 E0.05153
G1 X98.296 Y62.017 E0.04498
G1 X98.515 Y61.162 E0.02767
G1 X98.985 Y59.962 E0.04042
G1 X99.578 Y58.960 E0.03649
G1 F8640.000
G1 X99.688 Y58.773 E-0.05027
G1 X100.570 Y57.783 E-0.30594
G1 X101.291 Y57.208 E-0.21313
G1 X102.004 Y56.791 E-0.19065
G1 E-0.04000 F2100.00000
G1 Z0.800 F10800.000
G1 X107.866 Y64.695
G1 Z0.200
G1 E0.80000 F2100.00000
G1 F1200.000
G1 X108.123 Y64.368 E0.01303
G1 X108.430 Y64.088 E0.01303
G1 X108.779 Y63.861 E0.01303
G1 X109.160 Y63.695 E0.01303
G1 X109.563 Y63.594 E0.01303
G1 X109.945 Y63.562 E0.01201
G1 X140.055 Y63.562 E0.94410
G1 X140.437 Y63.594 E0.01201
G1 X140.840 Y63.695 E0.01303
G1 X141.221 Y63.861 E0.01303
G1 X141.570 Y64.088 E0.01303
G1 X141.877 Y64.368 E0.01303
G1 X142.134 Y64.695 E0.01303
G1 X142.333 Y65.059 E0.01303
G1 X142.471 Y65.452 E0.01303
G1 X142.542 Y65.861 E0.01303
G1 X142.546 Y66.277 E0.01304
G1 X142.486 Y66.655 E0.01202
G1 X139.247 Y79.958 E0.42929
G1 X138.853 Y81.140 E0.03907
G1 X138.253 Y82.270 E0.04010
G1 X137.473 Y83.284 E0.04010
G1 X137.019 Y83.706 E0.01945
G1 X136.537 Y84.155 E0.02065
G1 X135.469 Y84.859 E0.04010
G1 X134.299 Y85.376 E0.04010
G1 X133.060 Y85.692 E0.04010
G1 X131.819 Y85.795 E0.03907
G1 X118.181 Y85.795 E0.42758
G1 X116.940 Y85.692 E0.03907
G1 X115.701 Y85.376 E0.04010
G1 X114.531 Y84.859 E0.04010
G1 X113.463 Y84.155 E0.04010
G1 X112.527 Y83.284 E0.04010
G1 X111.747 Y82.270 E0.04010
G1 X111.147 Y81.140 E0.04010
G1 X110.753 Y79.958 E0.03907
G1 X107.514 Y66.655 E0.42929
G1 X107.454 Y66.277 E0.01202
G1 X107.458 Y65.861 E0.01304
G1 X107.529 Y65.452 E0.01303
G1 X107.667 Y65.059 E0.01303
G1 X107.838 Y64.747 E0.01115
G1 X108.168 Y64.929 F10800.000
G1 F1200.000
G1 X108.400 Y64.625 E0.01198
G1 X108.661 Y64.387 E0.01108
G1 X108.958 Y64.194 E0.01108
G1 X109.282 Y64.053 E0.01108
G1 X109.625 Y63.967 E0.01108
G1 X109.960 Y63.939 E0.01055
G1 X140.040 Y63.939 E0.94313
G1 X140.375 Y63.967 E0.01055
G1 X140.718 Y64.053 E0.01108
G1 X141.042 Y64.194 E0.01108
G1 X141.339 Y64.387 E0.01108
G1 X141.600 Y64.625 E0.01108
G1 X141.818 Y64.903 E0.01108
G1 X141.988 Y65.213 E0.01108
G1 X142.105 Y65.547 E0.01108
G1 X142.165 Y65.895 E0.01108
G1 X142.168 Y66.249 E0.01108
G1 X142.116 Y66.581 E0.01055
G1 X138.884 Y79.854 E0.42832
G1 X138.505 Y80.991 E0.03759
G1 X137.934 Y82.065 E0.03813
G1 X137.194 Y83.029 E0.03813
G1 X136.762 Y83.430 E0.01846
G1 X136.303 Y83.857 E0.01966
G1 X135.288 Y84.526 E0.03813
G1 X134.176 Y85.018 E0.03813
G1 X132.998 Y85.319 E0.03813
G1 X131.803 Y85.418 E0.03759
G1 X118.197 Y85.418 E0.42660
G1 X117.002 Y85.319 E0.03759
G1 X115.824 Y85.018 E0.03813
G1 X114.712 Y84.526 E0.03813
G1 X113.697 Y83.857 E0.03813
G1 X112.806 Y83.029 E0.03813
G1 X112.066 Y82.065 E0.03813
G1 X111.495 Y80.991 E0.03813
G1 X111.116 Y79.854 E0.03759
G1 X107.884 Y66.581 E0.42832
G1 X107.832 Y66.249 E0.01055
G1 X107.835 Y65.895 E0.01108
G1 X107.895 Y65.547 E0.01108
G1 X108.012 Y65.213 E0.01108
G1 X108.139 Y64.981 E0.00830
G1 X107.994 Y64.589 F10800.000
G1 F8640.000
G1 X108.400 Y64.625 E-0.10193
G1 X108.661 Y64.387 E-0.08162
G1 X108.958 Y64.194 E-0.08162
G1 X109.282 Y64.053 E-0.08161
G1 X109.625 Y63.967 E-0.08162
G1 X109.960 Y63.939 E-0.07771
G1 X111.060 Y63.939 E-0.25388
G1 E-0.04000 F2100.00000
G1 Z0.800 F10800.000
G1 X142.916 Y127.389
G1 Z0.200
G1 E0.80000 F2100.00000
G1 F1200.000
G1 X143.143 Y128.343 E0.03076
G1 X143.854 Y128.499 E0.02281
G1 X143.931 Y128.541 E0.00274
G1 X144.132 Y128.700 E0.00804
G1 X144.373 Y128.960 E0.01113
G1 X144.635 Y129.331 E0.01425
G1 X144.870 Y129.762 E0.01540
G1 X145.139 Y130.419 E0.02224
G1 X145.255 Y130.788 E0.01214
G1 X145.453 Y131.623 E0.02688
G1 X145.536 Y132.112 E0.01558
G1 X145.663 Y133.242 E0.03563
G1 X145.703 Y133.833 E0.01857
G1 X145.741 Y135.041 E0.03789
G1 X145.720 Y136.167 E0.03532
G1 X145.690 Y136.650 E0.01518
G1 X145.593 Y137.422 E0.02439
G1 X145.439 Y138.044 E0.02010
G1 X145.183 Y138.699 E0.02204
G1 X144.834 Y139.404 E0.02466
G1 X144.046 Y140.807 E0.05046
G1 X143.395 Y141.812 E0.03753
G1 X143.040 Y142.302 E0.01896
G1 X142.663 Y142.777 E0.01903
G1 X142.268 Y143.226 E0.01875
G1 X141.853 Y143.644 E0.01847
G1 X141.375 Y144.074 E0.02016
G1 X140.918 Y144.445 E0.01845
G1 X139.935 Y145.160 E0.03812
G1 X138.895 Y145.848 E0.03911
G1 X136.187 Y147.580 E0.10076
G1 X135.124 Y148.225 E0.03900
G1 X134.089 Y148.804 E0.03719
G1 X133.083 Y149.302 E0.03518
G1 X132.607 Y149.512 E0.01632
G1 X131.664 Y149.879 E0.03171
G1 X130.817 Y150.146 E0.02788
G1 X130.394 Y150.256 E0.01368
G1 X129.547 Y150.424 E0.02709
G1 X128.208 Y150.590 E0.04230
G1 X124.153 Y150.973 E0.12772
G1 X122.470 Y151.107 E0.05292
G1 X121.230 Y151.173 E0.03894
G1 X120.462 Y151.192 E0.02410
G1 X119.340 Y151.175 E0.03517
G1 X118.666 Y151.131 E0.02117
G1 X118.018 Y151.060 E0.02043
G1 X117.387 Y150.962 E0.02002
G1 X116.708 Y150.823 E0.02175
G1 X116.076 Y150.663 E0.02042
G1 X115.424 Y150.472 E0.02131
G1 X114.369 Y150.114 E0.03494
G1 X112.908 Y149.552 E0.04909
G1 X111.386 Y148.916 E0.05171
G1 X107.490 Y147.185 E0.13367
G1 X107.041 Y146.954 E0.01583
G1 X106.742 Y146.760 E0.01118
G1 X106.505 Y146.550 E0.00992
G1 X106.345 Y146.366 E0.00764
G1 X106.175 Y146.111 E0.00961
G1 X105.916 Y145.570 E0.01882
G1 X105.659 Y144.798 E0.02550
G1 X105.402 Y143.862 E0.03044
G1 X105.274 Y143.310 E0.01777
G1 X105.176 Y142.756 E0.01762
G1 X105.130 Y142.239 E0.01630
G1 X105.144 Y141.773 E0.01460
G1 X105.234 Y141.288 E0.01548
G1 X105.364 Y140.885 E0.01328
G1 X105.583 Y140.419 E0.01615
G1 X105.908 Y139.880 E0.01973
G1 X106.241 Y139.413 E0.01798
G1 X106.650 Y138.916 E0.02017
G1 X107.085 Y138.453 E0.01994
G1 X107.621 Y137.965 E0.02272
G1 X108.212 Y137.519 E0.02320
G1 X108.558 Y137.066 E0.01787
G1 X108.820 Y136.625 E0.01610
G1 X109.009 Y136.147 E0.01612
G1 X109.076 Y135.857 E0.00932
G1 X109.111 Y135.556 E0.00949
G1 X109.075 Y134.999 E0.01752
G1 X108.282 Y131.147 E0.12330
G1 X106.764 Y131.407 E0.04828
G1 X106.036 Y131.487 E0.02296
G1 X105.182 Y131.498 E0.02680
G1 X104.709 Y131.463 E0.01484
G1 X104.207 Y131.392 E0.01590
G1 X104.179 Y131.386 E0.00092
G1 X104.175 Y131.361 E0.00078
G1 X104.152 Y131.012 E0.01097
G1 X104.187 Y130.755 E0.00815
G1 X104.550 Y130.322 E0.01772
G1 X104.708 Y130.069 E0.00933
G1 X104.826 Y129.774 E0.00998
G1 X104.938 Y129.216 E0.01782
G1 X105.125 Y127.553 E0.05247
G1 X105.279 Y126.448 E0.03499
G1 X105.474 Y125.378 E0.03410
G1 X105.577 Y124.948 E0.01385
G1 X105.687 Y124.594 E0.01163
G1 X105.807 Y124.311 E0.00965
G1 X105.942 Y124.078 E0.00843
G1 X106.077 Y123.907 E0.00683
G1 X106.595 Y123.410 E0.02251
G1 X106.345 Y122.186 E0.03916
G1 X106.229 Y121.337 E0.02686
G1 X106.158 Y120.406 E0.02928
G1 X106.131 Y119.137 E0.03980
G1 X106.057 Y119.032 E0.00404
G1 X106.018 Y118.878 E0.00496
G1 X105.933 Y118.260 E0.01957
G1 X105.859 Y117.385 E0.02755
G1 X105.827 Y116.377 E0.03161
G1 X105.854 Y115.330 E0.03283
G1 X105.981 Y113.757 E0.04948
G1 X106.215 Y111.822 E0.06111
G1 X106.432 Y110.333 E0.04720
G1 X106.733 Y108.782 E0.04953
G1 X107.436 Y105.813 E0.09567
G1 X108.043 Y102.912 E0.09292
G1 X108.287 Y102.024 E0.02887
G1 X108.428 Y101.640 E0.01284
G1 X108.594 Y101.285 E0.01229
G1 X108.809 Y100.941 E0.01271
G1 X109.119 Y100.568 E0.01521
G1 X109.576 Y100.133 E0.01978
G1 X110.193 Y99.641 E0.02473
G1 X110.898 Y99.159 E0.02678
G1 X111.543 Y98.793 E0.02325
G1 X111.799 Y98.681 E0.00876
G1 X112.682 Y98.411 E0.02894
G1 X112.546 Y97.464 E0.02997
G1 X112.428 Y96.872 E0.01893
G1 X112.246 Y96.295 E0.01897
G1 X110.700 Y92.220 E0.13665
G1 X109.272 Y88.541 E0.12375
G1 X107.989 Y85.317 E0.10881
G1 X104.175 Y76.022 E0.31500
G1 X103.478 Y74.200 E0.06118
G1 X102.982 Y72.782 E0.04710
G1 X102.558 Y71.453 E0.04373
G1 X102.202 Y70.213 E0.04045
G1 X101.911 Y69.063 E0.03719
G1 X101.582 Y67.496 E0.05020
G1 X101.378 Y66.164 E0.04226
G1 X101.289 Y65.279 E0.02788
G1 X101.248 Y64.251 E0.03225
G1 X101.267 Y63.641 E0.01915
G1 X101.321 Y63.091 E0.01731
G1 X101.407 Y62.598 E0.01571
G1 X101.521 Y62.149 E0.01450
G1 X101.662 Y61.736 E0.01370
G1 X101.830 Y61.348 E0.01324
G1 X102.021 Y60.986 E0.01286
G1 X102.235 Y60.653 E0.01241
G1 X102.476 Y60.350 E0.01213
G1 X102.751 Y60.076 E0.01218
G1 X103.068 Y59.828 E0.01263
G1 X103.438 Y59.604 E0.01355
G1 X103.872 Y59.407 E0.01495
G1 X104.378 Y59.239 E0.01670
G1 X104.989 Y59.104 E0.01964
G1 X105.844 Y58.998 E0.02701
G1 X107.115 Y58.918 E0.03993
G1 X110.134 Y58.845 E0.09467
G1 X115.598 Y58.812 E0.17134
G1 X136.014 Y58.817 E0.64013
G1 X140.481 Y58.854 E0.14005
G1 X142.043 Y58.888 E0.04901
G1 X143.585 Y58.955 E0.04838
G1 X144.152 Y58.997 E0.01783
G1 X145.011 Y59.104 E0.02712
G1 X145.622 Y59.239 E0.01964
G1 X146.128 Y59.407 E0.01670
G1 X146.562 Y59.604 E0.01495
G1 X146.932 Y59.828 E0.01355
G1 X147.249 Y60.076 E0.01263
G1 X147.524 Y60.350 E0.01218
G1 X147.765 Y60.653 E0.01213
G1 X147.979 Y60.986 E0.01241
G1 X148.170 Y61.348 E0.01286
G1 X148.338 Y61.736 E0.01324
G1 X148.479 Y62.149 E0.01370
G1 X148.593 Y62.598 E0.01450
G1 X148.679 Y63.091 E0.01571
G1 X148.733 Y63.641 E0.01731
G1 X148.752 Y64.251 E0.01915
G1 X148.711 Y65.280 E0.03229
G1 X148.622 Y66.164 E0.02784
G1 X148.418 Y67.498 E0.04232
G1 X148.214 Y68.515 E0.03253
G1 X147.797 Y70.215 E0.05489
G1 X147.443 Y71.451 E0.04031
G1 X146.779 Y73.481 E0.06697
G1 X146.084 Y75.363 E0.06290
G1 X145.282 Y77.364 E0.06761
G1 X142.666 Y83.699 E0.21488
G1 X141.251 Y87.218 E0.11893
G1 X139.392 Y91.979 E0.16024
G1 X137.168 Y97.864 E0.19728
G1 X137.008 Y98.363 E0.01644
G1 X136.893 Y98.886 E0.01679
G1 X136.819 Y99.422 E0.01695
G1 X136.770 Y100.007 E0.01840
G1 X136.741 Y101.348 E0.04206
G1 X136.778 Y102.548 E0.03764
G1 X136.940 Y104.729 E0.06858
G1 X137.010 Y106.376 E0.05168
G1 X137.115 Y107.979 E0.05036
G1 X137.490 Y112.586 E0.14493
G1 X137.560 Y113.080 E0.01565
G1 X137.681 Y113.597 E0.01665
G1 X138.044 Y114.549 E0.03194
G1 X138.318 Y115.052 E0.01795
G1 X139.227 Y116.177 E0.04535
G1 X140.054 Y117.022 E0.03708
G1 X140.617 Y117.691 E0.02741
G1 X141.298 Y118.654 E0.03698
G1 X141.683 Y119.264 E0.02262
G1 X142.307 Y120.330 E0.03874
G1 X142.777 Y121.214 E0.03138
G1 X143.158 Y122.026 E0.02813
G1 X143.464 Y122.809 E0.02635
G1 X143.691 Y123.540 E0.02399
G1 X143.909 Y124.482 E0.03032
G1 X144.045 Y125.398 E0.02904
G1 X144.054 Y125.645 E0.00774
G1 X144.035 Y125.824 E0.00567
G1 X143.984 Y126.016 E0.00624
G1 X143.885 Y126.266 E0.00843
G1 X143.750 Y126.535 E0.00941
G1 X143.604 Y126.768 E0.00864
G1 X143.474 Y126.924 E0.00637
G1 X142.962 Y127.350 E0.02090
G1 X143.337 Y127.529 F10800.000
G1 F1200.000
G1 X143.455 Y128.025 E0.01600
G1 X143.987 Y128.142 E0.01706
G1 X144.139 Y128.224 E0.00543
G1 X144.389 Y128.422 E0.00999
G1 X144.667 Y128.722 E0.01282
G1 X144.956 Y129.132 E0.01572
G1 X145.212 Y129.600 E0.01674
G1 X145.494 Y130.291 E0.02339
G1 X145.618 Y130.688 E0.01305
G1 X145.822 Y131.547 E0.02768
G1 X145.910 Y132.060 E0.01630
G1 X146.039 Y133.208 E0.03623
G1 X146.080 Y133.814 E0.01905
G1 X146.118 Y135.038 E0.03840
G1 X146.097 Y136.182 E0.03587
G1 X146.066 Y136.686 E0.01581
G1 X145.964 Y137.491 E0.02546
G1 X145.799 Y138.159 E0.02157
G1 X145.528 Y138.852 E0.02333
G1 X145.167 Y139.580 E0.02548
G1 X144.369 Y141.002 E0.05113
G1 X143.706 Y142.025 E0.03822
G1 X143.341 Y142.529 E0.01953
G1 X142.952 Y143.019 E0.01960
G1 X142.543 Y143.483 E0.01940
G1 X142.113 Y143.917 E0.01916
G1 X141.620 Y144.360 E0.02079
G1 X141.148 Y144.744 E0.01906
G1 X140.150 Y145.470 E0.03870
G1 X139.100 Y146.164 E0.03946
G1 X136.387 Y147.900 E0.10100
G1 X135.314 Y148.550 E0.03935
G1 X134.264 Y149.138 E0.03770
G1 X133.243 Y149.643 E0.03574
G1 X132.752 Y149.861 E0.01685
G1 X131.789 Y150.235 E0.03236
G1 X130.921 Y150.509 E0.02857
G1 X130.478 Y150.623 E0.01433
G1 X129.607 Y150.796 E0.02785
G1 X128.249 Y150.965 E0.04290
G1 X124.185 Y151.349 E0.12798
G1 X122.495 Y151.483 E0.05316
G1 X121.245 Y151.549 E0.03926
G1 X120.464 Y151.569 E0.02450
G1 X119.325 Y151.552 E0.03571
G1 X118.633 Y151.507 E0.02173
G1 X117.969 Y151.434 E0.02096
G1 X117.320 Y151.333 E0.02058
G1 X116.624 Y151.190 E0.02229
G1 X115.977 Y151.027 E0.02091
G1 X115.311 Y150.831 E0.02178
G1 X114.241 Y150.469 E0.03542
G1 X112.767 Y149.902 E0.04950
G1 X111.237 Y149.263 E0.05200
G1 X107.988 Y147.828 E0.11136
G1 X107.325 Y147.524 E0.02287
G1 X106.852 Y147.281 E0.01669
G1 X106.513 Y147.061 E0.01266
G1 X106.236 Y146.816 E0.01159
G1 X106.045 Y146.595 E0.00916
G1 X105.851 Y146.305 E0.01095
G1 X105.564 Y145.706 E0.02084
G1 X105.298 Y144.908 E0.02637
G1 X105.037 Y143.955 E0.03099
G1 X104.904 Y143.385 E0.01832
G1 X104.802 Y142.806 E0.01844
G1 X104.752 Y142.250 E0.01751
G1 X104.768 Y141.733 E0.01621
G1 X104.867 Y141.195 E0.01715
G1 X105.013 Y140.746 E0.01479
G1 X105.250 Y140.241 E0.01750
G1 X105.593 Y139.673 E0.02080
G1 X105.942 Y139.184 E0.01884
G1 X106.366 Y138.667 E0.02097
G1 X106.818 Y138.187 E0.02066
G1 X107.384 Y137.672 E0.02400
G1 X107.944 Y137.249 E0.02199
G1 X108.245 Y136.855 E0.01556
G1 X108.480 Y136.458 E0.01447
G1 X108.648 Y136.034 E0.01429
G1 X108.704 Y135.793 E0.00776
G1 X108.732 Y135.547 E0.00777
G1 X108.701 Y135.049 E0.01564
G1 X107.986 Y131.580 E0.11104
G1 X106.817 Y131.780 E0.03720
G1 X106.065 Y131.863 E0.02372
G1 X105.631 Y131.881 E0.01363
