; generated by PrusaSlicer 2.2.0+win64 on 2020-06-04 at 08:59:36 UTC

; 

; external perimeters extrusion width = 0.45mm
; perimeters extrusion width = 0.45mm
; infill extrusion width = 0.45mm
; solid infill extrusion width = 0.45mm
; top infill extrusion width = 0.40mm
; first layer extrusion width = 0.42mm

M73 P0 R23
M73 Q0 S24
M201 X1000 Y1000 Z200 E5000 ; sets maximum accelerations, mm/sec^2
M203 X200 Y200 Z12 E120 ; sets maximum feedrates, mm/sec
M204 P1250 R1250 T1250 ; sets acceleration (P, T) and retract acceleration (R), mm/sec^2
M205 X8.00 Y8.00 Z0.40 E4.50 ; sets the jerk limits, mm/sec
M205 S0 T0 ; sets the minimum extruding and travel feed rate, mm/sec
M107
; M862.3 P "MK3S" ; printer model check
M862.1 P0.4 ; nozzle diameter check
M115 U3.8.1 ; tell printer latest fw version
G90 ; use absolute coordinates
M83 ; extruder relative mode
M104 S215 ; set extruder temp
M140 S60 ; set bed temp
M190 S60 ; wait for bed temp
M109 S215 ; wait for extruder temp
G28 W ; home all without mesh bed level
G80 ; mesh bed leveling
G1 Y-3.0 F1000.0 ; go outside print area
G92 E0.0
G1 X60.0 E9.0 F1000.0 ; intro line
M73 Q0 S23
M73 P0 R23
G1 X100.0 E12.5 F1000.0 ; intro line
G92 E0.0
M221 S95
G21 ; set units to millimeters
G90 ; use absolute coordinates
M83 ; use relative distances for extrusion
M900 K0.06 ; Filament gcode LA 1.5
M900 K30 ; Filament gcode LA 1.0
;BEFORE_LAYER_CHANGE
G92 E0.0
;0.2


G1 E-0.80000 F2100.00000
G1 Z0.600 F10800.000
;AFTER_LAYER_CHANGE
;0.2
G1 X78.010 Y93.220
G1 Z0.200
G1 E0.80000 F2100.00000
M204 S1000
G1 F1200.000
G1 X78.697 Y92.936 E0.02331
G1 X79.249 Y92.871 E0.01743
G1 X170.755 Y92.871 E2.86908
G1 X171.650 Y93.048 E0.02860
G1 X172.412 Y93.549 E0.02860
G1 X172.930 Y94.300 E0.02860
G1 X173.127 Y95.194 E0.02872
G1 X173.120 Y114.949 E0.61941
G1 X172.943 Y115.671 E0.02331
G1 X172.554 Y116.301 E0.02319
G1 X171.990 Y116.780 E0.02319
G1 X171.303 Y117.064 E0.02331
G1 X170.751 Y117.129 E0.01743
G1 X79.204 Y117.128 E2.87040
G1 X78.439 Y116.986 E0.02437
G1 X77.759 Y116.603 E0.02449
G1 X77.241 Y116.023 E0.02437
G1 X76.937 Y115.304 E0.02449
G1 X76.872 Y114.756 E0.01728
G1 X76.879 Y95.062 E0.61750
G1 X77.053 Y94.339 E0.02331
G1 X77.441 Y93.705 E0.02331
G1 X77.964 Y93.259 E0.02155
G1 E-0.80000 F2100.00000
G1 Z0.800 F10800.000
G1 X80.036 Y96.036
G1 Z0.200
G1 E0.80000 F2100.00000
G1 F1200.000
G1 X169.964 Y96.036 E2.81961
G1 X169.964 Y113.964 E0.56215
G1 X80.036 Y113.964 E2.81961
G1 X80.036 Y96.096 E0.56026
G1 X79.659 Y95.659 F10800.000
G1 F1200.000
G1 X170.341 Y95.659 E2.84325
G1 X170.341 Y114.341 E0.58579
G1 X79.659 Y114.341 E2.84325
G1 X79.659 Y95.719 E0.58391
G1 X80.058 Y95.686 F10800.000
G1 E-0.80000 F2100.00000
G1 Z0.800 F10800.000
G1 X169.851 Y96.913
G1 Z0.200
G1 E0.80000 F2100.00000
G1 F1200.000
G1 X169.256 Y96.318 E0.02644
G1 X168.721 Y96.318 E0.01681
G1 X169.681 Y97.278 E0.04267
G1 X169.681 Y97.813 E0.01681
G1 X168.186 Y96.318 E0.06645
G1 X167.652 Y96.318 E0.01681
G1 X169.681 Y98.348 E0.09022
G1 X169.681 Y98.882 E0.01681
G1 X167.117 Y96.318 E0.11400
G1 X166.582 Y96.318 E0.01681
G1 X169.681 Y99.417 E0.13777
G1 X169.681 Y99.952 E0.01681
G1 X166.047 Y96.318 E0.16155
G1 X165.513 Y96.318 E0.01681
G1 X169.681 Y100.487 E0.18532
G1 X169.681 Y101.021 E0.01681
G1 X164.978 Y96.318 E0.20910
G1 X164.443 Y96.318 E0.01681
G1 X169.681 Y101.556 E0.23287
G1 X169.681 Y102.091 E0.01681
G1 X163.909 Y96.318 E0.25665
G1 X163.374 Y96.318 E0.01681
G1 X169.681 Y102.625 E0.28042
G1 X169.681 Y103.160 E0.01681
G1 X162.839 Y96.318 E0.30420
G1 X162.304 Y96.318 E0.01681
G1 X169.681 Y103.695 E0.32797
G1 X169.681 Y104.230 E0.01681
G1 X161.770 Y96.318 E0.35175
G1 X161.235 Y96.318 E0.01681
G1 X169.681 Y104.764 E0.37552
G1 X169.681 Y105.299 E0.01681
G1 X160.700 Y96.318 E0.39930
G1 X160.166 Y96.318 E0.01681
G1 X169.681 Y105.834 E0.42307
G1 X169.681 Y106.368 E0.01681
G1 X159.631 Y96.318 E0.44685
G1 X159.096 Y96.318 E0.01681
G1 X169.681 Y106.903 E0.47062
G1 X169.681 Y107.438 E0.01681
G1 X158.561 Y96.318 E0.49440
G1 X158.027 Y96.318 E0.01681
G1 X169.681 Y107.973 E0.51817
G1 X169.681 Y108.507 E0.01681
G1 X157.492 Y96.318 E0.54195
G1 X156.957 Y96.318 E0.01681
G1 X169.681 Y109.042 E0.56572
G1 X169.681 Y109.577 E0.01681
G1 X156.422 Y96.318 E0.58950
G1 X155.888 Y96.318 E0.01681
G1 X169.681 Y110.111 E0.61327
G1 X169.681 Y110.646 E0.01681
G1 X155.353 Y96.318 E0.63705
G1 X154.818 Y96.318 E0.01681
G1 X169.681 Y111.181 E0.66082
G1 X169.681 Y111.716 E0.01681
G1 X154.284 Y96.318 E0.68460
G1 X153.749 Y96.318 E0.01681
G1 X169.681 Y112.250 E0.70837
G1 X169.681 Y112.785 E0.01681
G1 X153.214 Y96.318 E0.73215
G1 X152.679 Y96.318 E0.01681
G1 X169.681 Y113.320 E0.75592
G1 X169.681 Y113.682 E0.01138
G1 X169.508 Y113.682 E0.00544
G1 X152.145 Y96.318 E0.77201
M73 Q4 S22
M73 P4 R22
G1 X151.610 Y96.318 E0.01681
G1 X168.973 Y113.682 E0.77201
G1 X168.439 Y113.682 E0.01681
G1 X151.075 Y96.318 E0.77201
G1 X150.541 Y96.318 E0.01681
G1 X167.904 Y113.682 E0.77201
G1 X167.369 Y113.682 E0.01681
G1 X150.006 Y96.318 E0.77201
G1 X149.471 Y96.318 E0.01681
G1 X166.834 Y113.682 E0.77201
G1 X166.300 Y113.682 E0.01681
G1 X148.936 Y96.318 E0.77201
G1 X148.402 Y96.318 E0.01681
G1 X165.765 Y113.682 E0.77201
G1 X165.230 Y113.682 E0.01681
G1 X147.867 Y96.318 E0.77201
G1 X147.332 Y96.318 E0.01681
G1 X164.695 Y113.682 E0.77201
G1 X164.161 Y113.682 E0.01681
G1 X146.798 Y96.318 E0.77201
G1 X146.263 Y96.318 E0.01681
G1 X163.626 Y113.682 E0.77201
G1 X163.091 Y113.682 E0.01681
G1 X145.728 Y96.318 E0.77201
G1 X145.193 Y96.318 E0.01681
G1 X162.557 Y113.682 E0.77201
G1 X162.022 Y113.682 E0.01681
G1 X144.659 Y96.318 E0.77201
G1 X144.124 Y96.318 E0.01681
G1 X161.487 Y113.682 E0.77201
G1 X160.952 Y113.682 E0.01681
G1 X143.589 Y96.318 E0.77201
G1 X143.054 Y96.318 E0.01681
G1 X160.418 Y113.682 E0.77201
G1 X159.883 Y113.682 E0.01681
G1 X142.520 Y96.318 E0.77201
G1 X141.985 Y96.318 E0.01681
G1 X159.348 Y113.682 E0.77201
G1 X158.814 Y113.682 E0.01681
G1 X141.450 Y96.318 E0.77201
G1 X140.916 Y96.318 E0.01681
G1 X158.279 Y113.682 E0.77201
G1 X157.744 Y113.682 E0.01681
G1 X140.381 Y96.318 E0.77201
G1 X139.846 Y96.318 E0.01681
G1 X157.209 Y113.682 E0.77201
G1 X156.675 Y113.682 E0.01681
G1 X139.311 Y96.318 E0.77201
G1 X138.777 Y96.318 E0.01681
G1 X156.140 Y113.682 E0.77201
G1 X155.605 Y113.682 E0.01681
G1 X138.242 Y96.318 E0.77201
G1 X137.707 Y96.318 E0.01681
G1 X155.070 Y113.682 E0.77201
G1 X154.536 Y113.682 E0.01681
G1 X137.173 Y96.318 E0.77201
G1 X136.638 Y96.318 E0.01681
G1 X154.001 Y113.682 E0.77201
G1 X153.466 Y113.682 E0.01681
G1 X136.103 Y96.318 E0.77201
G1 X135.568 Y96.318 E0.01681
G1 X152.932 Y113.682 E0.77201
G1 X152.397 Y113.682 E0.01681
G1 X135.034 Y96.318 E0.77201
G1 X134.499 Y96.318 E0.01681
G1 X151.862 Y113.682 E0.77201
G1 X151.327 Y113.682 E0.01681
G1 X133.964 Y96.318 E0.77201
G1 X133.429 Y96.318 E0.01681
G1 X150.793 Y113.682 E0.77201
G1 X150.258 Y113.682 E0.01681
G1 X132.895 Y96.318 E0.77201
G1 X132.360 Y96.318 E0.01681
G1 X149.723 Y113.682 E0.77201
G1 X149.189 Y113.682 E0.01681
G1 X131.825 Y96.318 E0.77201
G1 X131.291 Y96.318 E0.01681
G1 X148.654 Y113.682 E0.77201
G1 X148.119 Y113.682 E0.01681
G1 X130.756 Y96.318 E0.77201
G1 X130.221 Y96.318 E0.01681
G1 X147.584 Y113.682 E0.77201
G1 X147.050 Y113.682 E0.01681
G1 X129.686 Y96.318 E0.77201
G1 X129.152 Y96.318 E0.01681
G1 X146.515 Y113.682 E0.77201
G1 X145.980 Y113.682 E0.01681
G1 X128.617 Y96.318 E0.77201
G1 X128.082 Y96.318 E0.01681
G1 X145.446 Y113.682 E0.77201
G1 X144.911 Y113.682 E0.01681
G1 X127.548 Y96.318 E0.77201
G1 X127.013 Y96.318 E0.01681
G1 X144.376 Y113.682 E0.77201
G1 X143.841 Y113.682 E0.01681
G1 X126.478 Y96.318 E0.77201
M73 Q8 S21
M73 P8 R21
G1 X125.943 Y96.318 E0.01681
G1 X143.307 Y113.682 E0.77201
G1 X142.772 Y113.682 E0.01681
G1 X125.409 Y96.318 E0.77201
G1 X124.874 Y96.318 E0.01681
G1 X142.237 Y113.682 E0.77201
G1 X141.702 Y113.682 E0.01681
G1 X124.339 Y96.318 E0.77201
G1 X123.804 Y96.318 E0.01681
G1 X141.168 Y113.682 E0.77201
G1 X140.633 Y113.682 E0.01681
G1 X123.270 Y96.318 E0.77201
G1 X122.735 Y96.318 E0.01681
G1 X140.098 Y113.682 E0.77201
G1 X139.564 Y113.682 E0.01681
G1 X122.200 Y96.318 E0.77201
G1 X121.666 Y96.318 E0.01681
G1 X139.029 Y113.682 E0.77201
G1 X138.494 Y113.682 E0.01681
G1 X121.131 Y96.318 E0.77201
G1 X120.596 Y96.318 E0.01681
G1 X137.959 Y113.682 E0.77201
G1 X137.425 Y113.682 E0.01681
G1 X120.061 Y96.318 E0.77201
G1 X119.527 Y96.318 E0.01681
G1 X136.890 Y113.682 E0.77201
G1 X136.355 Y113.682 E0.01681
G1 X118.992 Y96.318 E0.77201
G1 X118.457 Y96.318 E0.01681
G1 X135.821 Y113.682 E0.77201
G1 X135.286 Y113.682 E0.01681
G1 X117.923 Y96.318 E0.77201
G1 X117.388 Y96.318 E0.01681
G1 X134.751 Y113.682 E0.77201
G1 X134.216 Y113.682 E0.01681
G1 X116.853 Y96.318 E0.77201
G1 X116.318 Y96.318 E0.01681
G1 X133.682 Y113.682 E0.77201
G1 X133.147 Y113.682 E0.01681
G1 X115.784 Y96.318 E0.77201
G1 X115.249 Y96.318 E0.01681
G1 X132.612 Y113.682 E0.77201
G1 X132.077 Y113.682 E0.01681
G1 X114.714 Y96.318 E0.77201
G1 X114.180 Y96.318 E0.01681
G1 X131.543 Y113.682 E0.77201
G1 X131.008 Y113.682 E0.01681
G1 X113.645 Y96.318 E0.77201
G1 X113.110 Y96.318 E0.01681
G1 X130.473 Y113.682 E0.77201
G1 X129.939 Y113.682 E0.01681
G1 X112.575 Y96.318 E0.77201
G1 X112.041 Y96.318 E0.01681
G1 X129.404 Y113.682 E0.77201
G1 X128.869 Y113.682 E0.01681
G1 X111.506 Y96.318 E0.77201
G1 X110.971 Y96.318 E0.01681
G1 X128.334 Y113.682 E0.77201
G1 X127.800 Y113.682 E0.01681
G1 X110.436 Y96.318 E0.77201
G1 X109.902 Y96.318 E0.01681
G1 X127.265 Y113.682 E0.77201
G1 X126.730 Y113.682 E0.01681
G1 X109.367 Y96.318 E0.77201
G1 X108.832 Y96.318 E0.01681
G1 X126.196 Y113.682 E0.77201
G1 X125.661 Y113.682 E0.01681
G1 X108.298 Y96.318 E0.77201
G1 X107.763 Y96.318 E0.01681
G1 X125.126 Y113.682 E0.77201
G1 X124.591 Y113.682 E0.01681
G1 X107.228 Y96.318 E0.77201
G1 X106.693 Y96.318 E0.01681
G1 X124.057 Y113.682 E0.77201
G1 X123.522 Y113.682 E0.01681
G1 X106.159 Y96.318 E0.77201
G1 X105.624 Y96.318 E0.01681
G1 X122.987 Y113.682 E0.77201
G1 X122.452 Y113.682 E0.01681
G1 X105.089 Y96.318 E0.77201
G1 X104.555 Y96.318 E0.01681
G1 X121.918 Y113.682 E0.77201
G1 X121.383 Y113.682 E0.01681
G1 X104.020 Y96.318 E0.77201
G1 X103.485 Y96.318 E0.01681
G1 X120.848 Y113.682 E0.77201
G1 X120.314 Y113.682 E0.01681
G1 X102.950 Y96.318 E0.77201
G1 X102.416 Y96.318 E0.01681
G1 X119.779 Y113.682 E0.77201
G1 X119.244 Y113.682 E0.01681
G1 X101.881 Y96.318 E0.77201
G1 X101.346 Y96.318 E0.01681
G1 X118.709 Y113.682 E0.77201
G1 X118.175 Y113.682 E0.01681
G1 X100.811 Y96.318 E0.77201
M73 Q13 S20
M73 P13 R20
G1 X100.277 Y96.318 E0.01681
G1 X117.640 Y113.682 E0.77201
G1 X117.105 Y113.682 E0.01681
G1 X99.742 Y96.318 E0.77201
G1 X99.207 Y96.318 E0.01681
G1 X116.571 Y113.682 E0.77201
G1 X116.036 Y113.682 E0.01681
G1 X98.673 Y96.318 E0.77201
G1 X98.138 Y96.318 E0.01681
G1 X115.501 Y113.682 E0.77201
G1 X114.966 Y113.682 E0.01681
G1 X97.603 Y96.318 E0.77201
G1 X97.068 Y96.318 E0.01681
G1 X114.432 Y113.682 E0.77201
G1 X113.897 Y113.682 E0.01681
G1 X96.534 Y96.318 E0.77201
G1 X95.999 Y96.318 E0.01681
G1 X113.362 Y113.682 E0.77201
G1 X112.828 Y113.682 E0.01681
G1 X95.464 Y96.318 E0.77201
G1 X94.930 Y96.318 E0.01681
G1 X112.293 Y113.682 E0.77201
G1 X111.758 Y113.682 E0.01681
G1 X94.395 Y96.318 E0.77201
G1 X93.860 Y96.318 E0.01681
G1 X111.223 Y113.682 E0.77201
G1 X110.689 Y113.682 E0.01681
G1 X93.325 Y96.318 E0.77201
G1 X92.791 Y96.318 E0.01681
G1 X110.154 Y113.682 E0.77201
G1 X109.619 Y113.682 E0.01681
G1 X92.256 Y96.318 E0.77201
G1 X91.721 Y96.318 E0.01681
G1 X109.084 Y113.682 E0.77201
G1 X108.550 Y113.682 E0.01681
G1 X91.186 Y96.318 E0.77201
G1 X90.652 Y96.318 E0.01681
G1 X108.015 Y113.682 E0.77201
G1 X107.480 Y113.682 E0.01681
G1 X90.117 Y96.318 E0.77201
G1 X89.582 Y96.318 E0.01681
G1 X106.946 Y113.682 E0.77201
G1 X106.411 Y113.682 E0.01681
G1 X89.048 Y96.318 E0.77201
G1 X88.513 Y96.318 E0.01681
G1 X105.876 Y113.682 E0.77201
G1 X105.341 Y113.682 E0.01681
G1 X87.978 Y96.318 E0.77201
G1 X87.443 Y96.318 E0.01681
G1 X104.807 Y113.682 E0.77201
G1 X104.272 Y113.682 E0.01681
G1 X86.909 Y96.318 E0.77201
G1 X86.374 Y96.318 E0.01681
G1 X103.737 Y113.682 E0.77201
G1 X103.203 Y113.682 E0.01681
G1 X85.839 Y96.318 E0.77201
G1 X85.305 Y96.318 E0.01681
G1 X102.668 Y113.682 E0.77201
G1 X102.133 Y113.682 E0.01681
G1 X84.770 Y96.318 E0.77201
G1 X84.235 Y96.318 E0.01681
G1 X101.598 Y113.682 E0.77201
G1 X101.064 Y113.682 E0.01681
G1 X83.700 Y96.318 E0.77201
G1 X83.166 Y96.318 E0.01681
G1 X100.529 Y113.682 E0.77201
G1 X99.994 Y113.682 E0.01681
G1 X82.631 Y96.318 E0.77201
G1 X82.096 Y96.318 E0.01681
G1 X99.459 Y113.682 E0.77201
G1 X98.925 Y113.682 E0.01681
G1 X81.562 Y96.318 E0.77201
G1 X81.027 Y96.318 E0.01681
G1 X98.390 Y113.682 E0.77201
G1 X97.855 Y113.682 E0.01681
G1 X80.492 Y96.318 E0.77201
G1 X80.319 Y96.318 E0.00544
G1 X80.319 Y96.680 E0.01137
G1 X97.321 Y113.682 E0.75592
G1 X96.786 Y113.682 E0.01681
G1 X80.319 Y97.215 E0.73215
G1 X80.319 Y97.750 E0.01681
G1 X96.251 Y113.682 E0.70837
G1 X95.716 Y113.682 E0.01681
G1 X80.319 Y98.284 E0.68460
G1 X80.319 Y98.819 E0.01681
G1 X95.182 Y113.682 E0.66082
G1 X94.647 Y113.682 E0.01681
G1 X80.319 Y99.354 E0.63705
G1 X80.319 Y99.888 E0.01681
G1 X94.112 Y113.682 E0.61327
G1 X93.578 Y113.682 E0.01681
G1 X80.319 Y100.423 E0.58950
G1 X80.319 Y100.958 E0.01681
G1 X93.043 Y113.682 E0.56572
G1 X92.508 Y113.682 E0.01681
G1 X80.319 Y101.493 E0.54195
G1 X80.319 Y102.027 E0.01681
G1 X91.973 Y113.682 E0.51817
G1 X91.439 Y113.682 E0.01681
G1 X80.319 Y102.562 E0.49440
M73 Q17 S19
M73 P17 R19
G1 X80.319 Y103.097 E0.01681
G1 X90.904 Y113.682 E0.47062
G1 X90.369 Y113.682 E0.01681
G1 X80.319 Y103.632 E0.44685
G1 X80.319 Y104.166 E0.01681
G1 X89.834 Y113.682 E0.42307
G1 X89.300 Y113.682 E0.01681
G1 X80.319 Y104.701 E0.39930
G1 X80.319 Y105.236 E0.01681
G1 X88.765 Y113.682 E0.37553
G1 X88.230 Y113.682 E0.01681
G1 X80.319 Y105.770 E0.35175
G1 X80.319 Y106.305 E0.01681
G1 X87.696 Y113.682 E0.32798
G1 X87.161 Y113.682 E0.01681
G1 X80.319 Y106.840 E0.30420
G1 X80.319 Y107.375 E0.01681
G1 X86.626 Y113.682 E0.28043
G1 X86.091 Y113.682 E0.01681
G1 X80.319 Y107.909 E0.25665
G1 X80.319 Y108.444 E0.01681
G1 X85.557 Y113.682 E0.23288
G1 X85.022 Y113.682 E0.01681
G1 X80.319 Y108.979 E0.20910
G1 X80.319 Y109.513 E0.01681
G1 X84.487 Y113.682 E0.18533
G1 X83.953 Y113.682 E0.01681
G1 X80.319 Y110.048 E0.16155
G1 X80.319 Y110.583 E0.01681
G1 X83.418 Y113.682 E0.13778
G1 X82.883 Y113.682 E0.01681
G1 X80.319 Y111.118 E0.11400
G1 X80.319 Y111.652 E0.01681
G1 X82.348 Y113.682 E0.09023
G1 X81.814 Y113.682 E0.01681
G1 X80.319 Y112.187 E0.06645
G1 X80.319 Y112.722 E0.01681
G1 X81.279 Y113.682 E0.04268
G1 X80.744 Y113.682 E0.01681
G1 X80.149 Y113.087 E0.02645
M106 S255
;BEFORE_LAYER_CHANGE
G92 E0.0
;0.4


G1 E-0.80000 F2100.00000
G1 Z0.800 F10800.000
;AFTER_LAYER_CHANGE
;0.4
M104 S210 ; set temperature
G1 X77.241 Y116.023
G1 Z0.400
G1 E0.80000 F2100.00000
G1 F3000.000
G1 X76.937 Y115.304 E0.02449
G1 X76.872 Y114.756 E0.01728
G1 X76.879 Y95.062 E0.61750
G1 X77.053 Y94.339 E0.02331
G1 X77.441 Y93.705 E0.02331
G1 X78.010 Y93.220 E0.02343
G1 X78.697 Y92.936 E0.02331
G1 X79.249 Y92.871 E0.01743
G1 X170.755 Y92.871 E2.86908
G1 X171.650 Y93.048 E0.02860
G1 X172.412 Y93.549 E0.02860
G1 X172.930 Y94.300 E0.02860
G1 X173.127 Y95.194 E0.02872
G1 X173.120 Y114.949 E0.61941
G1 X172.943 Y115.671 E0.02331
G1 X172.554 Y116.301 E0.02319
G1 X171.990 Y116.780 E0.02319
G1 X171.303 Y117.064 E0.02331
G1 X170.751 Y117.129 E0.01743
G1 X79.204 Y117.128 E2.87040
G1 X78.439 Y116.986 E0.02437
G1 X77.759 Y116.603 E0.02449
G1 X77.281 Y116.068 E0.02249
G1 E-0.80000 F2100.00000
G1 Z1.000 F10800.000
G1 X79.881 Y114.119
G1 Z0.400
G1 E0.80000 F2100.00000
M204 S800
G1 F2700.000
G1 X79.881 Y95.881 E0.61736
G1 X170.119 Y95.881 E3.05443
G1 X170.119 Y114.119 E0.61736
G1 X79.941 Y114.119 E3.05240
M204 S1000
G1 X79.474 Y114.526 F10800.000
M204 S800
G1 F1500.000
G1 X79.474 Y95.474 E0.64492
G1 X170.526 Y95.474 E3.08198
G1 X170.526 Y114.526 E0.64492
G1 X79.534 Y114.526 E3.07995
M204 S1000
G1 X79.650 Y114.167 F10800.000
G1 E-0.80000 F2100.00000
G1 Z1.000 F10800.000
G1 X169.170 Y113.997
G1 Z0.400
G1 E0.80000 F2100.00000
G1 F4800.000
