; generated by Slic3r Prusa Edition 1.38.6-prusa3d-win64 on 2018-01-04 at 14:39:19

; 

; external perimeters extrusion width = 0.45mm
; perimeters extrusion width = 0.45mm
; infill extrusion width = 0.45mm
; solid infill extrusion width = 0.45mm
; top infill extrusion width = 0.40mm
; first layer extrusion width = 0.42mm

M107
M115 U3.1.1-RC4 ; tell printer latest fw version
M83  ; extruder relative mode
M104 S215 ; set extruder temp
M140 S60 ; set bed temp
M190 S60 ; wait for bed temp
M109 S215 ; wait for extruder temp
G28 W ; home all without mesh bed level
G80 ; mesh bed leveling
G1 Y-3.0 F1000.0 ; go outside print area
G92 E0.0
G1 X60.0 E9.0  F1000.0 ; intro line
G1 X100.0 E12.5  F1000.0 ; intro line
G92 E0.0
M221 S95
M900 K30; Filament gcode
G21 ; set units to millimeters
G90 ; use absolute coordinates
M83 ; use relative distances for extrusion
;BEFORE_LAYER_CHANGE
;0.2


G1 E-0.80000 F2100.00000
G1 Z0.600 F15000.000
;AFTER_LAYER_CHANGE
;0.2
G1 X15.913 Y20.913 F15000.000
G1 Z0.200 F15000.000
G1 E0.80000 F2100.00000
M204 S1000
G1 F1800
G1 X54.087 Y20.913 E1.19692
G1 X54.087 Y40.913 E0.62709
G1 X85.913 Y40.913 E0.99788
G1 X85.913 Y20.913 E0.62709
G1 X114.087 Y20.913 E0.88338
G1 X114.087 Y50.913 E0.94063
G1 X234.087 Y50.913 E3.76252
G1 X234.087 Y69.087 E0.56984
G1 X224.087 Y69.087 E0.31354
G1 X224.087 Y90.913 E0.68433
G1 X234.087 Y90.913 E0.31354
G1 X234.087 Y119.087 E0.88338
G1 X224.087 Y119.087 E0.31354
G1 X224.087 Y140.913 E0.68433
G1 X234.087 Y140.913 E0.31354
G1 X234.087 Y159.087 E0.56984
G1 X144.087 Y159.087 E2.82189
G1 X144.087 Y181.519 E0.70334
G1 X144.023 Y182.490 E0.03052
G1 X143.830 Y183.464 E0.03112
G1 X143.511 Y184.404 E0.03112
G1 X143.072 Y185.294 E0.03112
G1 X142.520 Y186.119 E0.03112
G1 X141.866 Y186.866 E0.03112
G1 X141.119 Y187.520 E0.03112
G1 X140.294 Y188.072 E0.03112
G1 X139.404 Y188.511 E0.03112
G1 X138.464 Y188.830 E0.03112
G1 X137.490 Y189.023 E0.03112
G1 X136.519 Y189.087 E0.03052
G1 X105.484 Y189.087 E0.97310
G1 X104.426 Y189.028 E0.03319
G1 X103.366 Y188.848 E0.03371
G1 X102.333 Y188.550 E0.03371
G1 X101.340 Y188.138 E0.03371
G1 X100.399 Y187.618 E0.03371
G1 X99.522 Y186.996 E0.03371
G1 X98.720 Y186.280 E0.03371
G1 X98.004 Y185.478 E0.03371
G1 X97.382 Y184.601 E0.03371
G1 X96.862 Y183.660 E0.03371
G1 X96.450 Y182.667 E0.03371
G1 X96.152 Y181.634 E0.03371
G1 X95.972 Y180.574 E0.03371
G1 X95.913 Y179.516 E0.03320
G1 X95.913 Y172.513 E0.21959
G1 X95.861 Y171.331 E0.03709
G1 X95.709 Y170.171 E0.03669
G1 X95.455 Y169.029 E0.03669
G1 X95.104 Y167.913 E0.03669
G1 X94.656 Y166.832 E0.03669
G1 X94.115 Y165.794 E0.03669
G1 X94.020 Y165.644 E0.00558
G1 X93.487 Y164.807 E0.03111
G1 X92.774 Y163.879 E0.03669
G1 X91.984 Y163.016 E0.03669
G1 X91.121 Y162.226 E0.03669
G1 X90.193 Y161.513 E0.03669
G1 X90.043 Y161.418 E0.00558
G1 X89.206 Y160.885 E0.03111
G1 X88.168 Y160.344 E0.03669
G1 X87.087 Y159.897 E0.03669
G1 X85.971 Y159.545 E0.03669
G1 X84.829 Y159.291 E0.03669
G1 X83.669 Y159.139 E0.03669
G1 X82.487 Y159.087 E0.03709
G1 X77.513 Y159.087 E0.15597
G1 X76.331 Y159.139 E0.03709
G1 X75.171 Y159.291 E0.03669
G1 X74.029 Y159.545 E0.03669
G1 X72.913 Y159.897 E0.03669
G1 X71.832 Y160.344 E0.03669
G1 X70.794 Y160.885 E0.03669
G1 X69.807 Y161.513 E0.03669
G1 X68.879 Y162.226 E0.03669
G1 X68.748 Y162.346 E0.00558
G1 X68.016 Y163.016 E0.03111
G1 X67.226 Y163.879 E0.03669
G1 X66.513 Y164.807 E0.03669
G1 X65.885 Y165.794 E0.03669
G1 X65.344 Y166.832 E0.03669
G1 X64.896 Y167.913 E0.03669
G1 X64.545 Y169.029 E0.03669
G1 X64.291 Y170.171 E0.03669
G1 X64.139 Y171.329 E0.03662
G1 X64.027 Y174.400 E0.09636
G1 X63.843 Y175.794 E0.04407
G1 X63.539 Y177.164 E0.04401
G1 X63.117 Y178.502 E0.04400
G1 X62.580 Y179.799 E0.04400
G1 X61.932 Y181.044 E0.04400
G1 X61.178 Y182.228 E0.04401
G1 X60.324 Y183.341 E0.04400
G1 X59.376 Y184.376 E0.04400
G1 X58.341 Y185.324 E0.04400
G1 X57.227 Y186.178 E0.04400
G1 X56.044 Y186.932 E0.04401
G1 X54.799 Y187.580 E0.04400
G1 X53.502 Y188.117 E0.04400
G1 X52.164 Y188.539 E0.04400
G1 X50.794 Y188.843 E0.04400
G1 X49.402 Y189.026 E0.04400
G1 X48.013 Y189.087 E0.04360
G1 X29.486 Y189.087 E0.58091
G1 X28.168 Y189.022 E0.04136
G1 X26.849 Y188.827 E0.04181
G1 X25.556 Y188.503 E0.04181
G1 X24.300 Y188.053 E0.04181
G1 X23.095 Y187.483 E0.04181
G1 X21.951 Y186.798 E0.04181
G1 X20.880 Y186.003 E0.04181
G1 X19.892 Y185.108 E0.04181
G1 X18.997 Y184.120 E0.04181
G1 X18.202 Y183.049 E0.04181
G1 X17.517 Y181.905 E0.04181
G1 X16.947 Y180.700 E0.04181
G1 X16.497 Y179.444 E0.04181
G1 X16.173 Y178.151 E0.04181
G1 X15.978 Y176.832 E0.04181
G1 X15.913 Y175.514 E0.04136
G1 X15.913 Y170.484 E0.15774
G1 X15.972 Y169.426 E0.03320
G1 X16.152 Y168.366 E0.03371
G1 X16.450 Y167.333 E0.03371
G1 X16.862 Y166.340 E0.03371
G1 X17.382 Y165.399 E0.03371
G1 X18.004 Y164.522 E0.03371
G1 X18.720 Y163.720 E0.03371
G1 X19.522 Y163.004 E0.03371
G1 X20.399 Y162.382 E0.03371
G1 X21.340 Y161.862 E0.03371
G1 X22.333 Y161.450 E0.03371
G1 X23.366 Y161.152 E0.03371
G1 X24.426 Y160.972 E0.03371
G1 X25.484 Y160.913 E0.03319
G1 X35.913 Y160.913 E0.32701
G1 X35.913 Y119.087 E1.31142
G1 X15.913 Y119.087 E0.62709
G1 X15.913 Y90.913 E0.88338
G1 X35.913 Y90.913 E0.62709
G1 X35.913 Y39.087 E1.62496
G1 X15.913 Y39.087 E0.62709
G1 X15.913 Y20.973 E0.56796
G1 X16.290 Y21.290 F15000.000
G1 F1800
G1 X53.710 Y21.290 E1.17328
G1 X53.710 Y41.290 E0.62709
G1 X86.290 Y41.290 E1.02152
G1 X86.290 Y21.290 E0.62709
G1 X113.710 Y21.290 E0.85973
G1 X113.710 Y51.290 E0.94063
G1 X233.710 Y51.290 E3.76252
G1 X233.710 Y68.710 E0.54619
G1 X223.710 Y68.710 E0.31354
G1 X223.710 Y91.290 E0.70798
G1 X233.710 Y91.290 E0.31354
G1 X233.710 Y118.710 E0.85973
G1 X223.710 Y118.710 E0.31354
G1 X223.710 Y141.290 E0.70798
G1 X233.710 Y141.290 E0.31354
G1 X233.710 Y158.710 E0.54619
G1 X143.710 Y158.710 E2.82189
G1 X143.710 Y181.507 E0.71478
G1 X143.649 Y182.441 E0.02936
G1 X143.465 Y183.366 E0.02957
G1 X143.162 Y184.259 E0.02957
G1 X142.744 Y185.105 E0.02957
G1 X142.220 Y185.889 E0.02957
G1 X141.599 Y186.599 E0.02957
G1 X140.889 Y187.220 E0.02957
G1 X140.105 Y187.744 E0.02957
G1 X139.259 Y188.162 E0.02957
G1 X138.366 Y188.465 E0.02957
G1 X137.441 Y188.649 E0.02957
G1 X136.507 Y188.710 E0.02936
G1 X105.494 Y188.710 E0.97238
G1 X104.469 Y188.652 E0.03220
G1 X103.451 Y188.479 E0.03238
G1 X102.458 Y188.193 E0.03238
G1 X101.504 Y187.798 E0.03238
G1 X100.600 Y187.299 E0.03238
G1 X99.757 Y186.701 E0.03238
G1 X98.987 Y186.013 E0.03238
G1 X98.299 Y185.243 E0.03238
G1 X97.701 Y184.400 E0.03238
G1 X97.202 Y183.496 E0.03238
G1 X96.807 Y182.542 E0.03238
G1 X96.521 Y181.549 E0.03238
G1 X96.348 Y180.531 E0.03238
G1 X96.290 Y179.506 E0.03220
G1 X96.290 Y172.505 E0.21952
G1 X96.237 Y171.298 E0.03786
G1 X96.080 Y170.105 E0.03772
G1 X95.820 Y168.931 E0.03772
G1 X95.458 Y167.784 E0.03772
G1 X94.998 Y166.672 E0.03772
G1 X94.442 Y165.605 E0.03772
G1 X94.338 Y165.441 E0.00609
G1 X93.796 Y164.590 E0.03162
G1 X93.064 Y163.636 E0.03772
G1 X92.251 Y162.749 E0.03772
G1 X91.364 Y161.936 E0.03772
G1 X90.410 Y161.204 E0.03772
G1 X90.246 Y161.100 E0.00609
G1 X89.395 Y160.558 E0.03162
G1 X88.328 Y160.002 E0.03772
G1 X87.216 Y159.542 E0.03772
G1 X86.069 Y159.180 E0.03772
G1 X84.895 Y158.920 E0.03772
G1 X83.702 Y158.763 E0.03772
G1 X82.495 Y158.710 E0.03786
G1 X77.505 Y158.710 E0.15648
G1 X76.298 Y158.763 E0.03786
G1 X75.105 Y158.920 E0.03772
G1 X73.931 Y159.180 E0.03772
G1 X72.784 Y159.542 E0.03772
G1 X71.672 Y160.002 E0.03772
G1 X70.605 Y160.558 E0.03772
G1 X69.590 Y161.204 E0.03772
G1 X68.636 Y161.936 E0.03772
G1 X68.493 Y162.068 E0.00609
G1 X67.749 Y162.749 E0.03162
G1 X66.936 Y163.636 E0.03772
G1 X66.204 Y164.590 E0.03772
G1 X65.558 Y165.605 E0.03772
G1 X65.002 Y166.672 E0.03772
G1 X64.542 Y167.784 E0.03772
G1 X64.180 Y168.931 E0.03772
G1 X63.920 Y170.105 E0.03772
G1 X63.763 Y171.297 E0.03770
G1 X63.651 Y174.369 E0.09636
G1 X63.472 Y175.728 E0.04299
G1 X63.175 Y177.066 E0.04297
G1 X62.763 Y178.373 E0.04297
G1 X62.238 Y179.639 E0.04297
G1 X61.605 Y180.855 E0.04297
G1 X60.869 Y182.011 E0.04297
G1 X60.035 Y183.098 E0.04297
G1 X59.109 Y184.109 E0.04297
G1 X58.098 Y185.035 E0.04297
G1 X57.011 Y185.869 E0.04297
G1 X55.855 Y186.605 E0.04297
G1 X54.639 Y187.238 E0.04297
G1 X53.373 Y187.763 E0.04297
G1 X52.066 Y188.175 E0.04297
G1 X50.728 Y188.472 E0.04297
G1 X49.369 Y188.650 E0.04297
G1 X48.005 Y188.710 E0.04283
G1 X29.495 Y188.710 E0.58036
G1 X28.205 Y188.647 E0.04049
G1 X26.923 Y188.456 E0.04065
G1 X25.665 Y188.141 E0.04065
G1 X24.445 Y187.705 E0.04065
G1 X23.273 Y187.150 E0.04065
G1 X22.161 Y186.484 E0.04065
G1 X21.119 Y185.712 E0.04065
G1 X20.159 Y184.841 E0.04065
G1 X19.288 Y183.881 E0.04065
G1 X18.516 Y182.839 E0.04065
G1 X17.850 Y181.727 E0.04065
G1 X17.295 Y180.555 E0.04065
G1 X16.859 Y179.335 E0.04065
G1 X16.544 Y178.077 E0.04065
G1 X16.353 Y176.795 E0.04065
G1 X16.290 Y175.505 E0.04049
G1 X16.290 Y170.494 E0.15712
G1 X16.348 Y169.469 E0.03220
G1 X16.521 Y168.451 E0.03238
G1 X16.807 Y167.458 E0.03238
G1 X17.202 Y166.504 E0.03238
G1 X17.701 Y165.600 E0.03238
G1 X18.299 Y164.757 E0.03238
G1 X18.987 Y163.987 E0.03238
G1 X19.757 Y163.299 E0.03238
G1 X20.600 Y162.701 E0.03238
G1 X21.504 Y162.202 E0.03238
G1 X22.458 Y161.807 E0.03238
G1 X23.451 Y161.521 E0.03238
G1 X24.469 Y161.348 E0.03238
G1 X25.494 Y161.290 E0.03220
G1 X36.290 Y161.290 E0.33850
G1 X36.290 Y118.710 E1.33507
G1 X16.290 Y118.710 E0.62709
G1 X16.290 Y91.290 E0.85973
G1 X36.290 Y91.290 E0.62709
G1 X36.290 Y38.710 E1.64861
G1 X16.290 Y38.710 E0.62709
G1 X16.290 Y21.350 E0.54431
G1 X16.178 Y20.906 F15000.000
G1 F12000
G1 X20.861 Y21.343 E-0.76000
G1 E-0.04000 F2100.00000
G1 Z0.800 F15000.000
G1 X54.413 Y40.587 F15000.000
G1 Z0.200 F15000.000
G1 E0.80000 F2100.00000
G1 F1800
G1 X85.587 Y40.587 E0.97744
G1 X85.587 Y20.587 E0.62709
G1 X114.413 Y20.587 E0.90381
G1 X114.413 Y50.587 E0.94063
G1 X234.413 Y50.587 E3.76252
G1 X234.413 Y69.413 E0.59027
G1 X224.413 Y69.413 E0.31354
G1 X224.413 Y90.587 E0.66390
G1 X234.413 Y90.587 E0.31354
G1 X234.413 Y119.413 E0.90381
G1 X224.413 Y119.413 E0.31354
G1 X224.413 Y140.587 E0.66390
G1 X234.413 Y140.587 E0.31354
G1 X234.413 Y159.413 E0.59027
G1 X144.413 Y159.413 E2.82189
G1 X144.413 Y181.484 E0.69201
G1 X144.362 Y182.386 E0.02834
G1 X144.214 Y183.261 E0.02782
G1 X143.968 Y184.113 E0.02782
G1 X143.628 Y184.933 E0.02782
G1 X143.199 Y185.709 E0.02782
G1 X142.686 Y186.433 E0.02782
G1 X142.095 Y187.095 E0.02782
G1 X141.433 Y187.686 E0.02782
G1 X140.709 Y188.199 E0.02782
G1 X140.043 Y188.568 E0.02387
G1 X139.113 Y188.968 E0.03174
G1 X138.261 Y189.214 E0.02782
G1 X137.386 Y189.362 E0.02782
G1 X136.484 Y189.413 E0.02834
G1 X105.514 Y189.413 E0.97101
G1 X104.528 Y189.364 E0.03095
G1 X103.566 Y189.222 E0.03050
G1 X102.623 Y188.985 E0.03050
G1 X101.707 Y188.658 E0.03050
G1 X100.827 Y188.242 E0.03050
G1 X99.993 Y187.742 E0.03050
G1 X99.212 Y187.162 E0.03050
G1 X98.491 Y186.509 E0.03050
G1 X97.838 Y185.788 E0.03050
G1 X97.258 Y185.007 E0.03050
G1 X96.758 Y184.173 E0.03050
G1 X96.342 Y183.293 E0.03050
G1 X96.015 Y182.377 E0.03050
G1 X95.778 Y181.434 E0.03050
G1 X95.636 Y180.472 E0.03050
G1 X95.587 Y179.486 E0.03095
G1 X95.587 Y172.486 E0.21948
G1 X95.525 Y171.217 E0.03982
G1 X95.336 Y169.947 E0.04027
G1 X95.024 Y168.701 E0.04027
G1 X94.592 Y167.492 E0.04027
G1 X94.042 Y166.330 E0.04027
G1 X93.922 Y166.130 E0.00731
G1 X93.382 Y165.229 E0.03296
G1 X92.617 Y164.197 E0.04027
G1 X91.754 Y163.246 E0.04027
G1 X90.803 Y162.383 E0.04027
G1 X89.771 Y161.618 E0.04027
G1 X88.670 Y160.958 E0.04027
G1 X87.719 Y160.508 E0.03296
G1 X87.508 Y160.408 E0.00731
G1 X86.299 Y159.976 E0.04027
G1 X85.053 Y159.664 E0.04027
G1 X83.783 Y159.475 E0.04027
G1 X82.514 Y159.413 E0.03982
G1 X77.486 Y159.413 E0.15768
G1 X76.217 Y159.475 E0.03982
G1 X74.947 Y159.664 E0.04027
G1 X73.701 Y159.976 E0.04027
G1 X72.492 Y160.408 E0.04027
G1 X71.330 Y160.958 E0.04027
G1 X70.229 Y161.618 E0.04027
G1 X69.197 Y162.383 E0.04027
G1 X68.246 Y163.246 E0.04027
G1 X67.383 Y164.197 E0.04027
G1 X66.618 Y165.229 E0.04027
G1 X65.958 Y166.330 E0.04027
G1 X65.408 Y167.492 E0.04027
G1 X64.976 Y168.701 E0.04027
G1 X64.664 Y169.947 E0.04027
G1 X64.475 Y171.217 E0.04027
G1 X64.413 Y172.486 E0.03982
G1 X64.413 Y172.988 E0.01577
G1 X64.362 Y174.288 E0.04077
G1 X64.210 Y175.567 E0.04041
G1 X63.959 Y176.831 E0.04041
G1 X63.609 Y178.072 E0.04041
G1 X63.163 Y179.281 E0.04041
G1 X62.624 Y180.451 E0.04041
G1 X61.994 Y181.575 E0.04041
G1 X61.278 Y182.647 E0.04041
G1 X60.480 Y183.659 E0.04041
G1 X59.605 Y184.605 E0.04041
G1 X58.659 Y185.480 E0.04041
G1 X57.647 Y186.278 E0.04041
G1 X56.575 Y186.994 E0.04041
G1 X55.451 Y187.624 E0.04041
G1 X54.281 Y188.163 E0.04041
G1 X53.072 Y188.609 E0.04041
G1 X51.831 Y188.959 E0.04041
G1 X50.567 Y189.210 E0.04041
G1 X49.288 Y189.362 E0.04041
G1 X47.988 Y189.413 E0.04077
G1 X29.513 Y189.413 E0.57929
G1 X28.287 Y189.359 E0.03846
G1 X27.084 Y189.201 E0.03805
G1 X25.899 Y188.938 E0.03805
G1 X24.742 Y188.573 E0.03805
G1 X23.620 Y188.109 E0.03805
G1 X22.544 Y187.548 E0.03805
G1 X21.520 Y186.896 E0.03806
G1 X20.557 Y186.157 E0.03805
G1 X19.662 Y185.338 E0.03805
G1 X18.843 Y184.443 E0.03805
G1 X18.104 Y183.480 E0.03805
G1 X17.452 Y182.456 E0.03805
G1 X16.891 Y181.380 E0.03805
G1 X16.427 Y180.258 E0.03805
G1 X16.062 Y179.101 E0.03806
G1 X15.799 Y177.916 E0.03805
G1 X15.641 Y176.713 E0.03805
G1 X15.587 Y175.487 E0.03846
G1 X15.587 Y170.514 E0.15592
G1 X15.636 Y169.528 E0.03095
G1 X15.778 Y168.566 E0.03050
G1 X16.015 Y167.623 E0.03050
G1 X16.294 Y166.841 E0.02602
G1 X16.758 Y165.827 E0.03496
G1 X17.258 Y164.993 E0.03050
G1 X17.838 Y164.212 E0.03050
G1 X18.491 Y163.491 E0.03050
G1 X19.212 Y162.838 E0.03050
G1 X19.993 Y162.258 E0.03050
G1 X20.705 Y161.832 E0.02602
G1 X21.707 Y161.342 E0.03496
G1 X22.623 Y161.015 E0.03050
G1 X23.566 Y160.778 E0.03050
G1 X24.528 Y160.636 E0.03050
G1 X25.514 Y160.587 E0.03095
G1 X35.587 Y160.587 E0.31582
G1 X35.587 Y119.413 E1.29099
G1 X15.587 Y119.413 E0.62709
G1 X15.587 Y90.587 E0.90381
G1 X35.587 Y90.587 E0.62709
G1 X35.587 Y39.413 E1.60453
G1 X15.587 Y39.413 E0.62709
G1 X15.587 Y20.587 E0.59027
G1 X54.413 Y20.587 E1.21736
G1 X54.413 Y40.527 E0.62520
G1 X54.790 Y40.210 F15000.000
G1 F1800
G1 X85.210 Y40.210 E0.95380
G1 X85.210 Y20.210 E0.62709
G1 X114.790 Y20.210 E0.92746
G1 X114.790 Y50.210 E0.94063
G1 X234.790 Y50.210 E3.76252
G1 X234.790 Y69.790 E0.61392
G1 X224.790 Y69.790 E0.31354
G1 X224.790 Y90.210 E0.64025
G1 X234.790 Y90.210 E0.31354
G1 X234.790 Y119.790 E0.92746
G1 X224.790 Y119.790 E0.31354
G1 X224.790 Y140.210 E0.64025
G1 X234.790 Y140.210 E0.31354
G1 X234.790 Y159.790 E0.61392
G1 X144.790 Y159.790 E2.82189
G1 X144.790 Y181.494 E0.68052
G1 X144.738 Y182.428 E0.02933
G1 X144.582 Y183.345 E0.02915
G1 X144.324 Y184.238 E0.02915
G1 X143.969 Y185.097 E0.02915
G1 X143.519 Y185.910 E0.02915
G1 X142.981 Y186.669 E0.02915
G1 X142.362 Y187.362 E0.02915
G1 X141.669 Y187.981 E0.02915
G1 X140.910 Y188.519 E0.02915
G1 X140.225 Y188.898 E0.02454
G1 X140.097 Y188.969 E0.00461
G1 X139.238 Y189.324 E0.02915
G1 X138.345 Y189.582 E0.02915
G1 X137.428 Y189.738 E0.02915
G1 X136.494 Y189.790 E0.02933
G1 X105.505 Y189.790 E0.97164
G1 X104.491 Y189.740 E0.03182
G1 X103.493 Y189.592 E0.03166
G1 X102.513 Y189.347 E0.03166
G1 X101.714 Y189.061 E0.02660
G1 X101.562 Y189.006 E0.00506
G1 X100.649 Y188.575 E0.03166
G1 X99.783 Y188.056 E0.03166
G1 X98.972 Y187.454 E0.03166
G1 X98.224 Y186.776 E0.03166
G1 X97.546 Y186.028 E0.03166
G1 X96.944 Y185.217 E0.03166
G1 X96.425 Y184.351 E0.03166
G1 X95.994 Y183.438 E0.03166
G1 X95.653 Y182.487 E0.03166
G1 X95.408 Y181.507 E0.03166
G1 X95.260 Y180.509 E0.03166
